!!!COM: Vivaldi, Antonio
!!!OTL: Concerto a violino solo, No. 11
!!!XEN: Violin Concerto No. 11 in D major
!!!OPR: Il Cimento dell'armonia e dell'inventione
!!!XEN: The Contest of Harmony and Invention
!!!OPS: Opus 8
!!!ONM: No. 11
!!!OMV: Movement 3.
!!!YEC: Copyright 1996, Center for Computer Assisted Research in the Humanities
!!!YEM: Rights to all derivative electronic formats reserved.
!!!YEM: Refer to licensing agreement for important restrictions.
!!!OMD: Allegro
**kern	**kern	**kern	**kern	**kern	**Bnum
*Icello	*Iviola	*Ivioln	*Ivioln	*Ivioln	*Icemba
*Icemba	*	*	*	*	*
*ICstr	*ICstr	*ICstr	*ICstr	*ICstr	*ICklav
*ICklav	*	*	*	*	*
!cello	!viola 	!violino 2	!violino 1	!violino principale	!continuo
!basso continuo	!	!	!	!	!
*clefF4	*clefC3	*clefG2	*clefG2	*clefG2	*
*k[f#c#]	*k[f#c#]	*k[f#c#]	*k[f#c#]	*k[f#c#]	*k[f#c#]
*D:	*D:	*D:	*D:	*D:	*D:
*M3/4	*M3/4	*M3/4	*M3/4	*M3/4	*M3/4
*>Amsterdam[1,2a,3,4a,5,6a]	*>Amsterdam[1,2a,3,4a,5,6a]	*>Amsterdam[1,2a,3,4a,5,6a]	*>Amsterdam[1,2a,3,4a,5,6a]	*>Amsterdam[1,2a,3,4a,5,6a]	*>Amsterdam[1,2a,3,4a,5,6a]
*>Turin1[1,2b,3,4a,5,6a]	*>Turin1[1,2b,3,4a,5,6a]	*>Turin1[1,2b,3,4a,5,6a]	*>Turin1[1,2b,3,4a,5,6a]	*>Turin1[1,2b,3,4a,5,6a]	*>Turin1[1,2b,3,4a,5,6a]
*>Turin2[1,2a,3,4b,5,6a]	*>Turin2[1,2a,3,4b,5,6a]	*>Turin2[1,2a,3,4b,5,6a]	*>Turin2[1,2a,3,4b,5,6a]	*>Turin2[1,2a,3,4b,5,6a]	*>Turin2[1,2a,3,4b,5,6a]
*>Turin3[1,2a,3,4a,5,6c]	*>Turin3[1,2a,3,4a,5,6c]	*>Turin3[1,2a,3,4a,5,6c]	*>Turin3[1,2a,3,4a,5,6c]	*>Turin3[1,2a,3,4a,5,6c]	*>Turin3[1,2a,3,4a,5,6c]
*>Turin4[1,2a,3,4a,5,6b,6c]	*>Turin4[1,2a,3,4a,5,6b,6c]	*>Turin4[1,2a,3,4a,5,6b,6c]	*>Turin4[1,2a,3,4a,5,6b,6c]	*>Turin4[1,2a,3,4a,5,6b,6c]	*>Turin4[1,2a,3,4a,5,6b,6c]
*>Turin5[1,2b,3,4b,5,6a]	*>Turin5[1,2b,3,4b,5,6a]	*>Turin5[1,2b,3,4b,5,6a]	*>Turin5[1,2b,3,4b,5,6a]	*>Turin5[1,2b,3,4b,5,6a]	*>Turin5[1,2b,3,4b,5,6a]
*>Turin6[1,2b,3,4a,5,6c]	*>Turin6[1,2b,3,4a,5,6c]	*>Turin6[1,2b,3,4a,5,6c]	*>Turin6[1,2b,3,4a,5,6c]	*>Turin6[1,2b,3,4a,5,6c]	*>Turin6[1,2b,3,4a,5,6c]
*>Turin7[1,2b,3,4a,5,6b,6c]	*>Turin7[1,2b,3,4a,5,6b,6c]	*>Turin7[1,2b,3,4a,5,6b,6c]	*>Turin7[1,2b,3,4a,5,6b,6c]	*>Turin7[1,2b,3,4a,5,6b,6c]	*>Turin7[1,2b,3,4a,5,6b,6c]
*>Turin8[1,2b,3,4b,5,6c]	*>Turin8[1,2b,3,4b,5,6c]	*>Turin8[1,2b,3,4b,5,6c]	*>Turin8[1,2b,3,4b,5,6c]	*>Turin8[1,2b,3,4b,5,6c]	*>Turin8[1,2b,3,4b,5,6c]
*>Turin9[1,2b,3,4b,5,6b,6c]	*>Turin9[1,2b,3,4b,5,6b,6c]	*>Turin9[1,2b,3,4b,5,6b,6c]	*>Turin9[1,2b,3,4b,5,6b,6c]	*>Turin9[1,2b,3,4b,5,6b,6c]	*>Turin9[1,2b,3,4b,5,6b,6c]
*>1	*>1	*>1	*>1	*>1	*>1
=1-	=1-	=1-	=1-	=1-	=1-
2.r	2.r	2.dd\	2.r	2.r	.
=2	=2	=2	=2	=2	=2
2.r	2.r	2.f#/	2.r	2.r	.
=3	=3	=3	=3	=3	=3
2.r	2.r	8g/L	2.r	2.r	.
.	.	8b/	.	.	.
.	.	8a/	.	.	.
.	.	8g/	.	.	.
.	.	8f#/	.	.	.
.	.	8e/J	.	.	.
=4	=4	=4	=4	=4	=4
2.r	2.r	8f#/L	2.r	2.r	.
.	.	8d/J	.	.	.
.	.	4f#/	.	.	.
.	.	4g#/	.	.	.
=5	=5	=5	=5	=5	=5
2.r	2.r	8a\L	2.aa\	2.aa\	.
.	.	8ee\	.	.	.
.	.	8aa\	.	.	.
.	.	8ee\	.	.	.
.	.	8cc#\	.	.	.
.	.	8a\J	.	.	.
=6	=6	=6	=6	=6	=6
2.r	2.r	8r	2.cc#\	2.cc#\	.
.	.	8ee\L	.	.	.
.	.	8aa\	.	.	.
.	.	8ee\	.	.	.
.	.	8cc#\	.	.	.
.	.	8a\J	.	.	.
=7	=7	=7	=7	=7	=7
2.r	2.r	8ff#\L	8dd\L	8dd\L	.
.	.	8aa\	8ff#\	8ff#\	.
.	.	8gg\	8ee\	8ee\	.
.	.	8ff#\	8dd\	8dd\	.
.	.	8ee\	8cc#\	8cc#\	.
.	.	8dd\J	8b\J	8b\J	.
=8	=8	=8	=8	=8	=8
2.r	2.r	8ee\L	8cc#\L	8cc#\L	.
.	.	8a\J	8a\J	8a\J	.
.	.	2gg\	4b\	4b\	.
.	.	.	4cc#\	4cc#\	.
=9	=9	=9	=9	=9	=9
2.d\	2.r	8ff#/L	8dd\L	8dd\L	.
.	.	8a/	8dd\	8dd\	.
.	.	8dd/	8ff#\	8ff#\	.
.	.	8a/	8dd\	8dd\	.
.	.	8f#/	8a\	8a\	.
.	.	8d/J	8f#\J	8f#\J	.
=10	=10	=10	=10	=10	=10
2.F#\	2.r	8r	8r	8r	6
.	.	8a/L	8dd\L	8dd\L	.
.	.	8dd/	8ff#\	8ff#\	.
.	.	8a/	8dd\	8dd\	.
.	.	8f#/	8a\	8a\	.
.	.	8d/J	8f#\J	8f#\J	.
=11	=11	=11	=11	=11	=11
8G\L	2.r	8b\L	[2.dd\	[2.dd\	.
8B\	.	8dd\	.	.	.
8A\	.	8cc#\	.	.	.
8G\	.	8b\	.	.	.
8F#\	.	8a\	.	.	6
8E\J	.	8g\J	.	.	.
=12	=12	=12	=12	=12	=12
8F#\L	2.r	8a/L	4dd\]	4dd\]	6
8D\J	.	8d/J	.	.	.
4F#\	.	2dd\	4aa\	4aa\	6
4G#\	.	.	4bb\	4bb\	6 5
=13	=13	=13	=13	=13	=13
[2.AA/	2.a\	8cc#/L	8ee\L	8ee\L	.
.	.	8a/	8cc#\	8cc#\	.
.	.	8cc#/	8ee\	8ee\	.
.	.	8a/	8cc#\	8cc#\	.
.	.	8e/	8a\	8a\	.
.	.	8c#/J	8e\J	8e\J	.
=14	=14	=14	=14	=14	=14
2.AA/]	2.c#\	8r	8r	8r	.
.	.	8a/L	8cc#\L	8cc#\L	.
.	.	8cc#/	8ee\	8ee\	.
.	.	8a/	8cc#\	8cc#\	.
.	.	8e/	8a\	8a\	.
.	.	8c#/J	8e\J	8e\J	.
=15	=15	=15	=15	=15	=15
2.D\	8d\L	[2.aa\	8ff#\L	8ff#\L	.
.	8f#\	.	8aa\	8aa\	.
.	8e\	.	8gg\	8gg\	.
.	8d\	.	8ff#\	8ff#\	.
.	8c#\	.	8ee\	8ee\	.
.	8B\J	.	8dd\J	8dd\J	.
=16	=16	=16	=16	=16	=16
4AA/	8c#/L	4aa\]	8ee\L	8ee\L	.
.	8A/J	.	8a\J	8a\J	.
4GG/	4B/	4dd\	2gg\	2gg\	.
4AA/	4c#\	8cc#\L	.	.	7 5
.	.	8b\J	.	.	.
=17	=17	=17	=17	=17	=17
4D\	4d\	4a/	4ff#\	4ff#\	.
8A\L	8ccn\L	[2a/	[2ccn\	[2ccn\	n
8G\	8b\	.	.	.	.
8F#\	8a\	.	.	.	.
8E\J	8g\J	.	.	.	.
=18	=18	=18	=18	=18	=18
2.D\	2.f#\	8a/L]	8cc\L]	8cc\L]	n7
.	.	8cc/	8ee\	8ee\	.
.	.	8b/	8dd\	8dd\	.
.	.	8a/	8cc\	8cc\	.
.	.	8g/	8b\	8b\	.
.	.	8f#/J	8a\J	8a\J	.
=19	=19	=19	=19	=19	=19
4G\	4g\	4dd\	4b\	4b\	.
8B\L	8dd\L	[2b\	[2dd\	[2dd\	6
8A\	8cc#\	.	.	.	.
8G#\	8b\	.	.	.	.
8F#\J	8a\J	.	.	.	.
=20	=20	=20	=20	=20	=20
2.E\	2.g#\	8b\L]	8dd\L]	8dd\L]	7 #
.	.	8dd\	8ff#\	8ff#\	.
.	.	8cc#\	8ee\	8ee\	.
.	.	8b\	8dd\	8dd\	.
.	.	8a\	8cc#\	8cc#\	.
.	.	8g#\J	8b\J	8b\J	.
=21	=21	=21	=21	=21	=21
4A\	4a\	4ee\	4cc#\	4cc#\	.
8c#\L	8ee\L	[2cc#\	[2ee\	[2ee\	.
8B\	8dd\	.	.	.	.
8A#\	8cc#\	.	.	.	.
8G#\J	8b\J	.	.	.	.
=22	=22	=22	=22	=22	=22
2.F#\	2.a#\	8cc#\L]	8ee\L]	8ee\L]	7 #
.	.	8ee\	8gg\	8gg\	.
.	.	8dd\	8ff#\	8ff#\	.
.	.	8cc#\	8ee\	8ee\	.
.	.	8b\	8dd\	8dd\	.
.	.	8a#\J	8cc#\J	8cc#\J	.
=23	=23	=23	=23	=23	=23
4B\	4b\	4ff#\	4dd\	4dd\	.
8B\L	8dd\L	2dd\	[2gg\	[2gg\	6
8A\	8cc#\	.	.	.	.
8G\	8b\	.	.	.	.
8F#\J	8a\J	.	.	.	.
=24	=24	=24	=24	=24	=24
4E\	2.g\	2.bb\	8gg\L]	8gg\L]	7
.	.	.	8aa\	8aa\	.
8E/L	.	.	8gg\	8gg\	.
8D/	.	.	8ff#\	8ff#\	.
8C#/	.	.	8ee\	8ee\	.
8BB/J	.	.	8dd\J	8dd\J	.
=25	=25	=25	=25	=25	=25
4AA/	4a\	4ee\	4cc#\	4cc#\	.
8r	8r	8r	8r	8r	.
16r	16r	16r	16r	16r	.
16AA/	16a\	16cc#\	16a/	16a/	.
4D\	4a\	4dd\	4ff#\	4ff#\	.
=26	=26	=26	=26	=26	=26
4AA/	4a\	4cc#\	4ee\	4ee\	.
8r	8r	8r	8r	8r	.
16r	16r	16r	16r	16r	.
16AA/	16a\	16cc#\	16a/	16a/	.
4D\	4a\	4dd\	4ff#\	4ff#\	.
=27	=27	=27	=27	=27	=27
4AA/	4a\	4cc#\	4ee\	4ee\	.
8r	8r	8r	8r	8r	.
16r	16r	16r	16r	16r	.
16AA/	16a\	16cc#\	16a/	16a/	.
4AA/	4cc#\	4ee\	4gg\	4gg\	7
=28	=28	=28	=28	=28	=28
4AA/	4cc#\	4ee\	4gg\	4gg\	.
8r	8r	8r	8r	8r	.
16r	16r	16r	16r	16r	.
16AA/	16cc#\	16cc#\	16ee\	16ee\	.
4D\	4a\	4dd\	4ff#\	4ff#\	.
=29	=29	=29	=29	=29	=29
8r	8r	8r	8r	8r	.
8B\L	8b\L	8b/L	8b/L	8b/L	.
8A\	8a\	8a/	8a/	8a/	.
8G\	8g\	8g/	8g/	8g/	.
8F#\	8f#\	8f#/	8f#/	8f#/	.
8E\J	8e\J	8e/J	8e/J	8e/J	.
=30	=30	=30	=30	=30	=30
8D\L	8d\L	8d/L	8d/L	8d/L	.
8B\	8b\	8b/	8b/	8b/	.
8A\	8a\	8a/	8a/	8a/	.
8G\	8g\	8g/	8g/	8g/	.
8F#\	8f#\	8f#/	8f#/	8f#/	6
8E\J	8e\J	8e/J	8e/J	8e/J	.
=31	=31	=31	=31	=31	=31
8D\L	8d\L	8d/L	8d/L	8d/L	.
8B\	8b\	8b/	8b/	8b/	.
8A\	8a\	8a/	8a/	8a/	.
8G\	8g\	8g/	8g/	8g/	.
8F#\	8f#\	8f#/	8f#/	8f#/	6
8E\J	8e\J	8e/J	8e/J	8e/J	.
=32	=32	=32	=32	=32	=32
4D\	4d\	4d/	4d/	8d\L	.
.	.	.	.	8dd\	.
4r	4r	4r	4r	8ee\	.
.	.	.	.	8dd\	.
4r	4r	4r	4r	8d\	.
.	.	.	.	8dd\J	.
=33	=33	=33	=33	=33	=33
4F#\	2.r	2.r	2.r	8aa\L	6
.	.	.	.	8dd\	.
4r	.	.	.	8ee\	.
.	.	.	.	8dd\	.
4r	.	.	.	8d\	.
.	.	.	.	8dd\J	.
=34	=34	=34	=34	=34	=34
4G\	2.r	2.r	2.r	8bb\L	6 5
.	.	.	.	8dd\	.
4r	.	.	.	8ee\	.
.	.	.	.	8dd\	.
4r	.	.	.	8d\	.
.	.	.	.	8dd\J	.
=35	=35	=35	=35	=35	=35
4A\	2.r	2.r	2.r	8ccc#\L	.
.	.	.	.	8dd\	.
4r	.	.	.	8ee\	.
.	.	.	.	8dd\	.
4r	.	.	.	8d\	.
.	.	.	.	8dd\J	.
=36	=36	=36	=36	=36	=36
2B\	2.r	2.r	2.r	4ddd\	6
.	.	.	.	8ccc#\L	.
.	.	.	.	8bb\J	.
4c#\	.	.	.	8aa\L	6 5
.	.	.	.	8gg\J	.
=37	=37	=37	=37	=37	=37
2d\	2.r	2.r	2.r	(4gg/P	.
.	.	.	.	8ff#pt\)	.
.	.	.	.	8ee\	.
4D\	.	.	.	4dd\	.
*>2a	*>2a	*>2a	*>2a	*>2a	*>2a
=38	=38	=38	=38	=38	=38
4D\	4d\	4a/	4ff#\	8ff#\L	.
.	.	.	.	8dd\	.
4D\	4d\	4a/	4ff#\	8ff#\	.
.	.	.	.	8ddd\	.
4D\	4d\	4a/	4ff#\	8ff#\	.
.	.	.	.	8dd\J	.
=39	=39	=39	=39	=39	=39
4C#/	4c#\	4a/	4ee\	(16ee\LL	6
.	.	.	.	16a\	.
.	.	.	.	16g\	.
.	.	.	.	16a\JJ)	.
4r	4c#\	4a/	4ee\	(16ee\LL	.
.	.	.	.	16a\	.
.	.	.	.	16g\	.
.	.	.	.	16a\JJ)	.
4r	4c#\	4a/	4ee\	(16ee\LL	.
.	.	.	.	16a\	.
.	.	.	.	16g\	.
.	.	.	.	16a\JJ)	.
=40	=40	=40	=40	=40	=40
4C#/	4c#\	4g/	4ee\	8ee\L	6
.	.	.	.	8cc#\	.
4C#/	4c#\	4g/	4ee\	8ee\	.
.	.	.	.	8ccc#\	.
4C#/	4c#\	4g/	4ee\	8ee\	.
.	.	.	.	8cc#\J	.
=41	=41	=41	=41	=41	=41
4BB/	4B/	4g/	4dd\	(16dd/LL	6
.	.	.	.	16g/	.
.	.	.	.	16f#/	.
.	.	.	.	16g/JJ)	.
4r	4B/	4g/	4dd\	(16dd/LL	.
.	.	.	.	16g/	.
.	.	.	.	16f#/	.
.	.	.	.	16g/JJ)	.
4r	4B/	4g/	4dd\	(16dd/LL	.
.	.	.	.	16g/	.
.	.	.	.	16f#/	.
.	.	.	.	16g/JJ)	.
=42	=42	=42	=42	=42	=42
4BB/	4B/	4f#/	4dd\	8dd\L	.
.	.	.	.	8b\	.
4BB/	4B/	4f#/	4dd\	8dd\	.
.	.	.	.	8bb\	.
4BB/	4B/	4f#/	4dd\	8dd\	.
.	.	.	.	8b\J	.
=43	=43	=43	=43	=43	=43
4AA/	4A/	4f#/	4cc#\	(16cc#/LL	6
.	.	.	.	16f#/	.
.	.	.	.	16e/	.
.	.	.	.	16f#/JJ)	.
4r	4A/	4f#/	4cc#\	(16cc#/LL	.
.	.	.	.	16f#/	.
.	.	.	.	16e/	.
.	.	.	.	16f#/JJ)	.
4r	4A/	4f#/	4cc#\	(16cc#/LL	.
.	.	.	.	16f#/	.
.	.	.	.	16e/	.
.	.	.	.	16f#/JJ)	.
=44	=44	=44	=44	=44	=44
4AA/	4A/	4e/	4cc#\	8cc#\L	.
.	.	.	.	8a\	.
4AA/	4A/	4e/	4cc#\	8cc#\	.
.	.	.	.	8aa\	.
4AA/	4A/	4e/	4cc#\	8cc#\	.
.	.	.	.	8a\J	.
=45	=45	=45	=45	=45	=45
4GG/	4G/	4e/	4b\	(16b/LL	6
.	.	.	.	16e/	.
.	.	.	.	16d/	.
.	.	.	.	16e/JJ)	.
4r	4G/	4e/	4b\	(16b/LL	.
.	.	.	.	16e/	.
.	.	.	.	16d/	.
.	.	.	.	16e/JJ)	.
4r	4G/	4e/	4b\	(16b/LL	.
.	.	.	.	16e/	.
.	.	.	.	16d/	.
.	.	.	.	16e/JJ)	.
=46	=46	=46	=46	=46	=46
4GG/	4G/	4d/	4b\	8b\L	.
.	.	.	.	8g\	.
4GG/	4G/	4d/	4b\	8b\	.
.	.	.	.	8dd\	.
4GG/	4G/	4d/	4b\	8gg\	.
.	.	.	.	8bb\J	.
=47	=47	=47	=47	=47	=47
4AA/	4A/	4c#/	4a/	8cc#/L	.
.	.	.	.	(8cc#/	.
4r	4r	4r	4r	8b/	.
.	.	.	.	8a/)	.
4r	4r	4r	4r	8A/	.
.	.	.	.	8a/J	.
=48	=48	=48	=48	=48	=48
4AA/	2.r	2.r	2.r	8dd/L	4 2
.	.	.	.	(8cc#/	.
4r	.	.	.	8b/	.
.	.	.	.	8a/)	.
4r	.	.	.	8A/	.
.	.	.	.	8a/J	.
=49	=49	=49	=49	=49	=49
4AA/	2.r	2.r	2.r	8ee/L	5 3
.	.	.	.	(8cc#/	.
4r	.	.	.	8b/	.
.	.	.	.	8a/)	.
4r	.	.	.	8A/	.
.	.	.	.	8a/J	.
=50	=50	=50	=50	=50	=50
4D\	2.r	2.r	2.r	8ff#/L	.
.	.	.	.	(8cc#/	.
4r	.	.	.	8b/	.
.	.	.	.	8a/)	.
4r	.	.	.	8A/	.
.	.	.	.	8a/J	.
=51	=51	=51	=51	=51	=51
2E\	2.r	2.r	2.r	(4.gg#\	#
.	.	.	.	8aa\)	.
4r	.	.	.	(8cc#\L	.
.	.	.	.	8dd\J)	.
=52	=52	=52	=52	=52	=52
2E\	2.r	2.r	2.r	(4.gg#\	#
.	.	.	.	8aa\)	.
4r	.	.	.	(8cc#\L	.
.	.	.	.	8dd\J)	.
=53	=53	=53	=53	=53	=53
4E\	2.r	2.r	2.r	16gg#\LL	#
.	.	.	.	16bb\	.
.	.	.	.	16gg#\	.
.	.	.	.	16ee\JJ	.
4C#/	.	.	.	16aa\LL	6
.	.	.	.	16ccc#\	.
.	.	.	.	16aa\	.
.	.	.	.	16ee\JJ	.
4GG#/	.	.	.	16bb\LL	6 5
.	.	.	.	16ddd\	.
.	.	.	.	16bb\	.
.	.	.	.	16ee\JJ	.
=54	=54	=54	=54	=54	=54
4AA/	2.r	2.r	2.r	16ccc#\LL	.
.	.	.	.	16eee\	.
.	.	.	.	16ccc#\	.
.	.	.	.	16ee\JJ	.
4BB/	.	.	.	16ddd\LL	.
.	.	.	.	16fff#\	.
.	.	.	.	16ddd\	.
.	.	.	.	16ee\JJ	.
4GG#/	.	.	.	16eee\LL	6
.	.	.	.	16ggg#\	.
.	.	.	.	16eee\	.
.	.	.	.	16ee\JJ	.
=55	=55	=55	=55	=55	=55
8AA\L	8A\L	8A/L	8A/L	4aaa\	.
8C#\	8c#\	8c#/	8c#/	.	.
8E\	8e\	8e/	8e/	4r	.
8A\	8a\	8a/	8a/	.	.
8E\	8e\	8e/	8e/	4r	6 4
8C#\J	8c#\J	8c#/J	8c#/J	.	.
=56	=56	=56	=56	=56	=56
4AA/	4A/	4A/	4A/	8aaa\L	.
.	.	.	.	8aa\	.
4r	4r	4aa\	4aa\	8ccc#\	.
.	.	.	.	8aaa\	.
4r	4r	4aa\	4aa\	8ccc#\	.
.	.	.	.	8aa\J	.
=57	=57	=57	=57	=57	=57
2.r	2.r	4gg#\	4gg#\	(16bb\LL	.
.	.	.	.	16ee\	.
.	.	.	.	16dd\	.
.	.	.	.	16ee\JJ)	.
.	.	4gg#\	4gg#\	(16bb\LL	.
.	.	.	.	16ee\	.
.	.	.	.	16dd\	.
.	.	.	.	16ee\JJ)	.
.	.	4gg#\	4gg#\	(16bb\LL	.
.	.	.	.	16ee\	.
.	.	.	.	16dd\	.
.	.	.	.	16ee\JJ)	.
=58	=58	=58	=58	=58	=58
2.r	2.r	4gg#\	4gg#\	8bb\L	.
.	.	.	.	8gg#\	.
.	.	4gg#\	4gg#\	8bb\	.
.	.	.	.	8ggg#\	.
.	.	4gg#\	4gg#\	8bb\	.
.	.	.	.	8gg#\J	.
=59	=59	=59	=59	=59	=59
2.r	2.r	4ff#\	4ff#\	(16aa\LL	.
.	.	.	.	16dd\	.
.	.	.	.	16cc#\	.
.	.	.	.	16dd\JJ)	.
.	.	4ff#\	4ff#\	(16aa\LL	.
.	.	.	.	16dd\	.
.	.	.	.	16cc#\	.
.	.	.	.	16dd\JJ)	.
.	.	4ff#\	4ff#\	(16aa\LL	.
.	.	.	.	16dd\	.
.	.	.	.	16cc#\	.
.	.	.	.	16dd\JJ)	.
=60	=60	=60	=60	=60	=60
2.r	2.r	4ff#\	4ff#\	8aa\L	.
.	.	.	.	8ff#\	.
.	.	4ff#\	4ff#\	8aa\	.
.	.	.	.	8fff#\	.
.	.	4ff#\	4ff#\	8aa\	.
.	.	.	.	8ff#\J	.
=61	=61	=61	=61	=61	=61
2.r	2.r	4ee\	4ee\	(16gg#\LL	.
.	.	.	.	16cc#\	.
.	.	.	.	16b\	.
.	.	.	.	16cc#\JJ)	.
.	.	4ee\	4ee\	(16gg#\LL	.
.	.	.	.	16cc#\	.
.	.	.	.	16b\	.
.	.	.	.	16cc#\JJ)	.
.	.	4ee\	4ee\	(16gg#\LL	.
.	.	.	.	16cc#\	.
.	.	.	.	16b\	.
.	.	.	.	16cc#\JJ)	.
=62	=62	=62	=62	=62	=62
2.r	2.r	4ee\	4ee\	8gg#\L	.
.	.	.	.	8ee\	.
.	.	4ee\	4ee\	8gg#\	.
.	.	.	.	8eee\	.
.	.	4ee\	4ee\	8gg#\	.
.	.	.	.	8ee\J	.
=63	=63	=63	=63	=63	=63
2.r	2.r	4dd\	4dd\	8ff#\L	.
.	.	.	.	8dd\	.
.	.	4dd\	4dd\	8ff#\	.
.	.	.	.	8ddd\	.
.	.	4dd\	4dd\	8ff#\	.
.	.	.	.	8dd\J	.
=64	=64	=64	=64	=64	=64
8r	2.r	4cc#\	4cc#\	[4ee\	.
8A\	.	.	.	.	.
4AA/	.	4r	4r	(16ee\LL]	.
.	.	.	.	16gg#\	.
.	.	.	.	16ff#\	.
.	.	.	.	16ee\JJ)	.
4r	.	4r	4r	(16aa\LL	.
.	.	.	.	16ccc#\	.
.	.	.	.	16bb\	.
.	.	.	.	16aa\JJ)	.
=65	=65	=65	=65	=65	=65
8r	2.r	2.r	2.r	[4eee\	.
8A\	.	.	.	.	.
4AA/	.	.	.	(16eee\LL]	.
.	.	.	.	16ccc#\	.
.	.	.	.	16bb\	.
.	.	.	.	16aa\JJ)	.
4r	.	.	.	(16ee\LL	.
.	.	.	.	16gg#\	.
.	.	.	.	16ff#\	.
.	.	.	.	16ee\JJ)	.
=66	=66	=66	=66	=66	=66
4B\	2.r	2.r	2.r	[4dd\	6\
4G#\	.	.	.	(16dd\LL]	6
.	.	.	.	16cc#\	.
.	.	.	.	16b\	.
.	.	.	.	16cc#\JJ	.
4E\	.	.	.	16dd\LL	7 #
.	.	.	.	16ee\	.
.	.	.	.	16ff#\	.
.	.	.	.	16gg#\JJ)	.
=67	=67	=67	=67	=67	=67
8C#/L	2.r	2.r	2.r	8aa\L	6
8AA/J	.	.	.	8a\J	.
4E\	.	.	.	4.bT\	4
4EE/	.	.	.	.	#
.	.	.	.	8a/	.
*>2b	*>2b	*>2b	*>2b	*>2b	*>2b
!! RV 210 / Turin: MS Giord.30, Variant C
=38	=38	=38	=38	=38	=38
4D\	2.r	2.r	2.r	8ff#\L	.
.	.	.	.	8dd\	.
4D\	.	.	.	8ff#\	.
.	.	.	.	8ddd\	.
4D\	.	.	.	8ff#\	.
.	.	.	.	8dd\J	.
=39	=39	=39	=39	=39	=39
4C#/	2.r	2.r	2.r	(32ff#P/	6
.	.	.	.	32eep\LL	.
.	.	.	.	16dd\J	.
.	.	.	.	8ee\J)	.
4r	.	.	.	(32ff#P/	.
.	.	.	.	32eep\LL	.
.	.	.	.	16dd\J	.
.	.	.	.	8ee\J)	.
4r	.	.	.	(32ff#P/	.
.	.	.	.	32eep\LL	.
.	.	.	.	16dd\J	.
.	.	.	.	8ee\J)	.
=40	=40	=40	=40	=40	=40
4C#/	2.r	2.r	2.r	8ee\L	6
.	.	.	.	8cc#\J	.
4C#/	.	.	.	8ee\L	.
.	.	.	.	16ccc#\L	.
.	.	.	.	16bb\JJ	.
4C#/	.	.	.	16aa\LL	.
.	.	.	.	16gg\	.
.	.	.	.	16ff#\	.
.	.	.	.	16ee\JJ	.
=41	=41	=41	=41	=41	=41
4BB/	2.r	2.r	2.r	(32eeP/	6
.	.	.	.	32ddp\LL	.
.	.	.	.	16cc#\J	.
.	.	.	.	8dd\J)	.
4r	.	.	.	(32eeP/	.
.	.	.	.	32ddp\LL	.
.	.	.	.	16cc#\J	.
.	.	.	.	8dd\J)	.
4r	.	.	.	(32eeP/	.
.	.	.	.	32ddp\LL	.
.	.	.	.	16cc#\J	.
.	.	.	.	8dd\J)	.
=42	=42	=42	=42	=42	=42
4BB/	2.r	2.r	2.r	8dd\L	.
.	.	.	.	8b\J	.
4BB/	.	.	.	8dd\L	.
.	.	.	.	16bb\L	.
.	.	.	.	16aa\JJ	.
4BB/	.	.	.	16gg\LL	.
.	.	.	.	16ff#\	.
.	.	.	.	16ee\	.
.	.	.	.	16dd\JJ	.
=43	=43	=43	=43	=43	=43
4AA/	2.r	2.r	2.r	(32ddP/	.
.	.	.	.	32cc#p\LL	.
.	.	.	.	16b\J	.
.	.	.	.	8cc#\J)	.
4r	.	.	.	(32ddP/	.
.	.	.	.	32cc#p\LL	.
.	.	.	.	16b\J	.
.	.	.	.	8cc#\J)	.
4r	.	.	.	(32ddP/	.
.	.	.	.	32cc#p\LL	.
.	.	.	.	16b\J	.
.	.	.	.	8cc#\J)	.
=44	=44	=44	=44	=44	=44
4AA/	2.r	2.r	2.r	8cc#\L	.
.	.	.	.	8a\J	.
4AA/	.	.	.	8cc#\L	.
.	.	.	.	16aa\L	.
.	.	.	.	16gg\JJ	.
4AA/	.	.	.	16ff#\LL	.
.	.	.	.	16ee\	.
.	.	.	.	16dd\	.
.	.	.	.	16cc#\JJ	.
=45	=45	=45	=45	=45	=45
4GG/	2.r	2.r	2.r	(32cc#P/	.
.	.	.	.	32bp/LL	.
.	.	.	.	16a/J	.
.	.	.	.	8b/J)	.
4r	.	.	.	(32cc#P/	.
.	.	.	.	32bp/LL	.
.	.	.	.	16a/J	.
.	.	.	.	8b/J)	.
4r	.	.	.	(32cc#P/	.
.	.	.	.	32bp/LL	.
.	.	.	.	16a/J	.
.	.	.	.	8b/J)	.
=46	=46	=46	=46	=46	=46
4GG/	2.r	2.r	2.r	8b\L	.
.	.	.	.	8g\	.
4GG/	.	.	.	8b\	.
.	.	.	.	8dd\	.
4GG/	.	.	.	8gg\	.
.	.	.	.	8bb\J	.
=47	=47	=47	=47	=47	=47
4AA/	2.r	2.r	2.r	8ccc#\L	.
.	.	.	.	(8ccc#\	.
4r	.	.	.	8bb\	.
.	.	.	.	8aa\J)	.
4r	.	.	.	4aT/	.
=48	=48	=48	=48	=48	=48
4AA/	2.r	2.r	2.r	8ddd\L	.
.	.	.	.	(8ccc#\	.
4r	.	.	.	8bb\	.
.	.	.	.	8aa\J)	.
4r	.	.	.	4aT/	.
=49	=49	=49	=49	=49	=49
4AA/	2.r	2.r	2.r	8eee\L	.
.	.	.	.	(8ccc#\	.
4r	.	.	.	8bb\	.
.	.	.	.	8aa\J)	.
4r	.	.	.	4aT/	.
=50	=50	=50	=50	=50	=50
4D\	2.r	2.r	2.r	8fff#\L	.
.	.	.	.	(8ccc#\	.
4r	.	.	.	8bb\	.
.	.	.	.	8aa\J)	.
4r	.	.	.	4aT/	.
=51	=51	=51	=51	=51	=51
2E\	2.r	2.r	2.r	(4.gg#\	#
.	.	.	.	8aa\)	.
4r	.	.	.	(8cc#\L	.
.	.	.	.	8dd\J)	.
=52	=52	=52	=52	=52	=52
2E\	2.r	2.r	2.r	(4.gg#\	#
.	.	.	.	8aa\)	.
4r	.	.	.	(8cc#\L	.
.	.	.	.	8dd\J)	.
=53	=53	=53	=53	=53	=53
4E\	2.r	2.r	2.r	16gg#\LL	#
.	.	.	.	16bb\	.
.	.	.	.	16gg#\	.
.	.	.	.	16ee\JJ	.
4C#/	.	.	.	16aa\LL	6
.	.	.	.	16ccc#\	.
.	.	.	.	16aa\	.
.	.	.	.	16ee\JJ	.
4GG#/	.	.	.	16bb\LL	6 5
.	.	.	.	16ddd\	.
.	.	.	.	16bb\	.
.	.	.	.	16ee\JJ	.
=54	=54	=54	=54	=54	=54
4AA/	2.r	2.r	2.r	16ccc#\LL	.
.	.	.	.	16eee\	.
.	.	.	.	16ccc#\	.
.	.	.	.	16ee\JJ	.
4BB/	.	.	.	16ddd\LL	.
.	.	.	.	16fff#\	.
.	.	.	.	16ddd\	.
.	.	.	.	16ee\JJ	.
4GG#/	.	.	.	16eee\LL	6
.	.	.	.	16ggg#\	.
.	.	.	.	16eee\	.
.	.	.	.	16ee\JJ	.
=55	=55	=55	=55	=55	=55
8AA\L	8A\L	8A/L	8A/L	4aaa\	.
8C#\	8c#\	8c#/	8c#/	.	.
8E\	8e\	8e/	8e/	4r	.
8A\	8a\	8a/	8a/	.	.
8E\	8e\	8e/	8e/	4r	6 4
8C#\J	8c#\J	8c#/J	8c#/J	.	.
=56	=56	=56	=56	=56	=56
4AA/	4A/	4A/	4A/	8aaa\L	.
.	.	.	.	8aa\	.
4r	4r	4aa\	4aa\	8ccc#\	.
.	.	.	.	8aaa\	.
4r	4r	4aa\	4aa\	8ccc#\	.
.	.	.	.	8aa\J	.
=57	=57	=57	=57	=57	=57
2.r	2.r	4gg#\	4gg#\	(32ccc#P/	.
.	.	.	.	32bbp\LL	.
.	.	.	.	16aa\J	.
.	.	.	.	8bb\J)	.
.	.	4gg#\	4gg#\	(32ccc#P/	.
.	.	.	.	32bbp\LL	.
.	.	.	.	16aa\J	.
.	.	.	.	8bb\J)	.
.	.	4gg#\	4gg#\	(32ccc#P/	.
.	.	.	.	32bbp\LL	.
.	.	.	.	16aa\J	.
.	.	.	.	8bb\J)	.
=58	=58	=58	=58	=58	=58
2.r	2.r	4gg#\	4gg#\	8bb\L	.
.	.	.	.	8gg#\	.
.	.	4gg#\	4gg#\	8bb\	.
.	.	.	.	8ggg#\	.
.	.	4gg#\	4gg#\	8bb\	.
.	.	.	.	8gg#\J	.
=59	=59	=59	=59	=59	=59
2.r	2.r	4ff#\	4ff#\	(32bbP/	.
.	.	.	.	32aap\LL	.
.	.	.	.	16gg#\J	.
.	.	.	.	8aa\J)	.
.	.	4ff#\	4ff#\	(32bbP/	.
.	.	.	.	32aap\LL	.
.	.	.	.	16gg#\J	.
.	.	.	.	8aa\J)	.
.	.	4ff#\	4ff#\	(32bbP/	.
.	.	.	.	32aap\LL	.
.	.	.	.	16gg#\J	.
.	.	.	.	8aa\J)	.
=60	=60	=60	=60	=60	=60
2.r	2.r	4ff#\	4ff#\	8aa\L	.
.	.	.	.	8ff#\	.
.	.	4ff#\	4ff#\	8aa\	.
.	.	.	.	8fff#\	.
.	.	4ff#\	4ff#\	8aa\	.
.	.	.	.	8ff#\J	.
=61	=61	=61	=61	=61	=61
2.r	2.r	4ee\	4ee\	(32aaP/	.
.	.	.	.	32gg#p\LL	.
.	.	.	.	16ff#\J	.
.	.	.	.	8gg#\J)	.
.	.	4ee\	4ee\	(32aaP/	.
.	.	.	.	32gg#p\LL	.
.	.	.	.	16ff#\J	.
.	.	.	.	8gg#\J)	.
.	.	4ee\	4ee\	(32aaP/	.
.	.	.	.	32gg#p\LL	.
.	.	.	.	16ff#\J	.
.	.	.	.	8gg#\J)	.
=62	=62	=62	=62	=62	=62
2.r	2.r	4ee\	4ee\	8gg#\L	.
.	.	.	.	8ee\	.
.	.	4ee\	4ee\	8gg#\	.
.	.	.	.	8eee\	.
.	.	4ee\	4ee\	8gg#\	.
.	.	.	.	8ee\J	.
=63	=63	=63	=63	=63	=63
2.r	2.r	4dd\	4dd\	8ff#\L	.
.	.	.	.	8dd\	.
.	.	4dd\	4dd\	8ff#\	.
.	.	.	.	8ddd\	.
.	.	4dd\	4dd\	8ff#\	.
.	.	.	.	8dd\J	.
=64	=64	=64	=64	=64	=64
8r	2.r	4cc#\	4cc#\	[4ee\	.
8A\	.	.	.	.	.
4AA/	.	4cc#\	4cc#\	(16ee\LL]	.
.	.	.	.	16gg#\	.
.	.	.	.	16ff#\	.
.	.	.	.	16ee\JJ)	.
4r	.	4cc#\	4cc#\	(16aa\LL	.
.	.	.	.	16ccc#\	.
.	.	.	.	16bb\	.
.	.	.	.	16aa\JJ)	.
=65	=65	=65	=65	=65	=65
8r	2.r	4cc#\	4cc#\	[4eee\	.
8A\	.	.	.	.	.
4AA/	.	4cc#\	4cc#\	(16eee\LL]	.
.	.	.	.	16ccc#\	.
.	.	.	.	16bb\	.
.	.	.	.	16aa\JJ)	.
4r	.	4cc#\	4cc#\	(16ee\LL	.
.	.	.	.	16gg#\	.
.	.	.	.	16ff#\	.
.	.	.	.	16ee\JJ)	.
=66	=66	=66	=66	=66	=66
4B\	2.r	4b\	4b\	[4dd\	.
4G#\	.	4e/	4e/	16dd\LL]	.
.	.	.	.	16ee\	.
.	.	.	.	16ff#\	.
.	.	.	.	16gg\JJ	.
4E\	.	4d/	4d/	16aa\LL	.
.	.	.	.	16bb\	.
.	.	.	.	16ccc#\	.
.	.	.	.	16ddd\JJ	.
=67	=67	=67	=67	=67	=67
8C#/L	2.r	8c#/L	8c#/L	16eee\LL	6
.	.	.	.	16ddd\	.
8AA/J	.	8A/J	8A/J	16ccc#\	.
.	.	.	.	32bb\L	.
.	.	.	.	32aa\JJJ	.
4E\	.	4e/	4e/	2bbT\	4
4EE/	.	4e/	4e/	.	#
*>3	*>3	*>3	*>3	*>3	*>3
=68	=68	=68	=68	=68	=68
8AA/L	8r	2.r	2.aa\	2.aa\ 2.a\	.
8AA/	8c#\L	.	.	.	.
8C#/	8e\	.	.	.	6
8E/	8a\	.	.	.	.
8C#/	8e\	.	.	.	6
8AA/J	8c#\J	.	.	.	.
=69	=69	=69	=69	=69	=69
8r	8r	2.r	2.cc#\	2.cc#\	.
8AA/L	8c#\L	.	.	.	.
8C#/	8e\	.	.	.	6
8E/	8a\	.	.	.	.
8C#/	8e\	.	.	.	6
8AA/J	8c#\J	.	.	.	.
=70	=70	=70	=70	=70	=70
2D\	8B/L	2.r	8dd\L	8dd\L	6 5
.	8d/	.	8ff#\	8ff#\	.
.	8c#/	.	8ee\	8ee\	.
.	8B/	.	8dd\	8dd\	.
4E\	8A/	.	8cc#\	8cc#\	#
.	8G#/J	.	8b\J	8b\J	.
=71	=71	=71	=71	=71	=71
4AA/	8A\L	2.r	8cc#\L	8cc#\L	.
.	8e\J	.	8a\J	8a\J	.
4A\	2a\	.	4cc#\	4cc#\	6 5
4B\	.	.	4dd#\	4dd#\	#
=72	=72	=72	=72	=72	=72
[2.E\	8g#/L	2.ee\	8ee\L	8ee\L	#
.	8G#/	.	8ee\	8ee\	.
.	8B/	.	8gg#\	8gg#\	.
.	8e/	.	8bb\	8bb\	.
.	8B/	.	8gg#\	8gg#\	.
.	8G#/J	.	8ee\J	8ee\J	.
=73	=73	=73	=73	=73	=73
2.E\]	8r	2.g#/	8r	8r	#
.	8G#/L	.	8ee\L	8ee\L	.
.	8B/	.	8gg#\	8gg#\	.
.	8e/	.	8bb\	8bb\	.
.	8B/	.	8gg#\	8gg#\	.
.	8G#/J	.	8ee\J	8ee\J	.
=74	=74	=74	=74	=74	=74
2.AA/	[2.e\	8a/L	8cc#\L	8cc#\L	.
.	.	8cc#/	8ee\	8ee\	.
.	.	8b/	8dd\	8dd\	.
.	.	8a/	8cc#\	8cc#\	.
.	.	8g#/	8b\	8b\	.
.	.	8f#/J	8a\J	8a\J	.
=75	=75	=75	=75	=75	=75
4E\	4e\]	8g#/L	8b/L	8b/L	#
.	.	8e/J	8g#/J	8g#/J	.
4D\	4r	4f#/	2dd\	2dd\	6
4E\	4r	4g#/	.	.	7 #
=76	=76	=76	=76	=76	=76
[2.AA/	2.a\	8a\L	8cc#\L	8cc#\L	.
.	.	8a\	8cc#\	8cc#\	.
.	.	8cc#\	8ee\	8ee\	.
.	.	8ee\	8aa\	8aa\	.
.	.	8cc#\	8ee\	8ee\	.
.	.	8a\J	8cc#\J	8cc#\J	.
=77	=77	=77	=77	=77	=77
2.AA/]	2.c#\	8r	8r	8r	.
.	.	8a\L	8cc#\L	8cc#\L	.
.	.	8cc#\	8ee\	8ee\	.
.	.	8ee\	8aa\	8aa\	.
.	.	8cc#\	8ee\	8ee\	.
.	.	8a\J	8cc#\J	8cc#\J	.
=78	=78	=78	=78	=78	=78
2D\	8d\L	8b\L	2ff#\	2ff#\	6 5
.	8f#\	8dd\	.	.	.
.	8e\	8cc#\	.	.	.
.	8d\	8b\	.	.	.
4E\	8c#\	8a\	4gg#\	4gg#\	#
.	8B\J	8g#\J	.	.	.
=79	=79	=79	=79	=79	=79
4AA/	8c#/L	2ee\	2.aa\	2.aa\	.
.	8A/J	.	.	.	.
4r	4c#\	.	.	.	.
4r	4d#\	4ff#\	.	.	.
=80	=80	=80	=80	=80	=80
2.E\	[2.e\	8b\L	8gg#\L	8gg#\L	#
.	.	8b\	8ee\	8ee\	.
.	.	8ee\	8gg#\	8gg#\	.
.	.	8gg#\	8bb\	8bb\	.
.	.	8ee\	8gg#\	8gg#\	.
.	.	8b\J	8ee\J	8ee\J	.
=81	=81	=81	=81	=81	=81
2.GG#/	2.e_\	8r	8r	8r	6
.	.	8b\L	8ee\L	8ee\L	.
.	.	8ee\	8gg#\	8gg#\	.
.	.	8gg#\	8bb\	8bb\	.
.	.	8ee\	8gg#\	8gg#\	.
.	.	8b\J	8ee\J	8ee\J	.
=82	=82	=82	=82	=82	=82
8AA/L	2.e_\	8cc#\L	8r	8r	.
8C#/	.	8ee\	8cc#\L	8cc#\L	.
8BB/	.	8dd\	8dd\	8dd\	.
8AA/	.	8cc#\	8ee\J	8ee\J	.
8GG#/	.	8b\	8ff#\L	8ff#\L	.
8FF#/J	.	8a\J	16gg#\L	16gg#\L	.
.	.	.	16aa\JJ	16aa\JJ	.
=83	=83	=83	=83	=83	=83
8GG#/L	2.e\]	4ee\	8bb\L	8bb\L	6
8EE/J	.	.	8ee\J	8ee\J	.
4FF#/	.	2dd\	4aa\	4aa\	6
4GG#/	.	.	4bb\	4bb\	6 5
=84	=84	=84	=84	=84	=84
4AA/	4e\	4cc#\	4ee\	4ee\	.
8r	8r	8r	8r	8r	.
16r	16r	16r	16r	16r	.
16E\	16e\	16g#/	16e/	16e/	#
4AA/	4e\	4a/	4cc#\	4cc#\	.
=85	=85	=85	=85	=85	=85
4E\	4e\	4g#/	4b\	4b\	.
8r	8r	8r	8r	8r	.
16r	16r	16r	16r	16r	.
16E\	16e\	16g#/	16e/	16e/	#
4AA/	4e\	4a/	4cc#\	4cc#\	.
=86	=86	=86	=86	=86	=86
4E\	4e\	4g#/	4b\	4b\	#
8r	8r	8r	8r	8r	.
16r	16r	16r	16r	16r	.
16E\	16e\	16g#/	16e/	16e/	.
4E\	4g#\	4b\	4dd\	4dd\	7 #
=87	=87	=87	=87	=87	=87
4E\	4g#\	4b\	4dd\	4dd\	.
8r	8r	8r	8r	8r	.
16r	16r	16r	16r	16r	.
16E\	16g#\	16g#/	16e/	16e/	.
4AA/	4e\	4a/	4cc#\	4cc#\	.
=88	=88	=88	=88	=88	=88
8r	8r	8r	8r	8r	.
8F#/L	8f#\L	8f#/L	8f#/L	8f#/L	.
8E/	8e\	8e/	8e/	8e/	.
8D/	8d\	8d/	8d/	8d/	.
8C#/	8c#\	8c#/	8c#/	8c#/	.
8BB/J	8B\J	8B/J	8B/J	8B/J	.
=89	=89	=89	=89	=89	=89
8AA/L	8A\L	8A/L	8A/L	8A/L	.
8F#/	8f#\	8f#/	8f#/	8f#/	.
8E/	8e\	8e/	8e/	8e/	.
8D/	8d\	8d/	8d/	8d/	.
8C#/	8c#\	8c#/	8c#/	8c#/	.
8BB/J	8B\J	8B/J	8B/J	8B/J	.
=90	=90	=90	=90	=90	=90
8AA/L	8A\L	8A/L	8A/L	8A/L	.
8F#/	8f#\	8f#/	8f#/	8f#/	.
8E/	8e\	8e/	8e/	8e/	.
8D/	8d\	8d/	8d/	8d/	.
8C#/	8c#\	8c#/	8c#/	8c#/	.
8BB/J	8B\J	8B/J	8B/J	8B/J	.
=91	=91	=91	=91	=91	=91
! Tasto solo	!	!	!	!	!
[2.AA/	4A/	4A/	4A/	16cc#\LL	.
.	.	.	.	16ee\	.
.	.	.	.	16cc#\	.
.	.	.	.	16a\JJ	.
.	4r	4r	4r	16dd\LL	.
.	.	.	.	16ff#\	.
.	.	.	.	16dd\	.
.	.	.	.	16a\JJ	.
.	4r	4r	4r	16ee\LL	.
.	.	.	.	16gg#\	.
.	.	.	.	16ee\	.
.	.	.	.	16a\JJ	.
=92	=92	=92	=92	=92	=92
2.AA_/	2.r	2.r	2.r	16ff#\LL	.
.	.	.	.	16aa\	.
.	.	.	.	16ff#\	.
.	.	.	.	16a\JJ	.
.	.	.	.	16ee\LL	.
.	.	.	.	16gg#\	.
.	.	.	.	16ee\	.
.	.	.	.	16a\JJ	.
.	.	.	.	16dd\LL	.
.	.	.	.	16ff#\	.
.	.	.	.	16dd\	.
.	.	.	.	16a\JJ	.
=93	=93	=93	=93	=93	=93
2.AA_/	2.r	2.r	2.r	16cc#\LL	.
.	.	.	.	16ee\	.
.	.	.	.	16cc#\	.
.	.	.	.	16a\JJ	.
.	.	.	.	16dd\LL	.
.	.	.	.	16ff#\	.
.	.	.	.	16dd\	.
.	.	.	.	16a\JJ	.
.	.	.	.	16ee\LL	.
.	.	.	.	16gg#\	.
.	.	.	.	16ee\	.
.	.	.	.	16a\JJ	.
=94	=94	=94	=94	=94	=94
2.AA_/	2.r	2.r	2.r	16ff#\LL	.
.	.	.	.	16aa\	.
.	.	.	.	16ff#\	.
.	.	.	.	16a\JJ	.
.	.	.	.	16ee\LL	.
.	.	.	.	16gg#\	.
.	.	.	.	16ee\	.
.	.	.	.	16a\JJ	.
.	.	.	.	16dd\LL	.
.	.	.	.	16ff#\	.
.	.	.	.	16dd\	.
.	.	.	.	16a\JJ	.
=95	=95	=95	=95	=95	=95
8AA/L]	8r	8r	8r	4cc#\	.
8AA/	8A/L	8A/L	8A/L	.	.
8C#/	8c#/	8c#/	8c#/	4a/	.
8E/	8e/	8e/	8e/	.	.
8C#/	8c#/	8c#/	8c#/	4r	.
8AA/J	8A/J	8A/J	8A/J	.	.
=96	=96	=96	=96	=96	=96
! Tasto solo	!	!	!	!	!
[2.E\	4e\	4e/	4e/	16gg#\LL	#
.	.	.	.	16bb\	.
.	.	.	.	16gg#\	.
.	.	.	.	16ee\JJ	.
.	4r	4r	4r	16aa\LL	.
.	.	.	.	16ccc#\	.
.	.	.	.	16aa\	.
.	.	.	.	16ee\JJ	.
.	4r	4r	4r	16bb\LL	.
.	.	.	.	16ddd\	.
.	.	.	.	16bb\	.
.	.	.	.	16ee\JJ	.
=97	=97	=97	=97	=97	=97
2.E_\	2.r	2.r	2.r	16ccc#\LL	.
.	.	.	.	16eee\	.
.	.	.	.	16ccc#\	.
.	.	.	.	16ee\JJ	.
.	.	.	.	16bb\LL	.
.	.	.	.	16ddd\	.
.	.	.	.	16bb\	.
.	.	.	.	16ee\JJ	.
.	.	.	.	16aa\LL	.
.	.	.	.	16ccc#\	.
.	.	.	.	16aa\	.
.	.	.	.	16ee\JJ	.
=98	=98	=98	=98	=98	=98
2.E_\	2.r	2.r	2.r	16gg#\LL	.
.	.	.	.	16bb\	.
.	.	.	.	16gg#\	.
.	.	.	.	16ee\JJ	.
.	.	.	.	16aa\LL	.
.	.	.	.	16ccc#\	.
.	.	.	.	16aa\	.
.	.	.	.	16ee\JJ	.
.	.	.	.	16bb\LL	.
.	.	.	.	16ddd\	.
.	.	.	.	16bb\	.
.	.	.	.	16ee\JJ	.
=99	=99	=99	=99	=99	=99
2.E_\	2.r	2.r	2.r	16ccc#\LL	#
.	.	.	.	16eee\	.
.	.	.	.	16ccc#\	.
.	.	.	.	16ee\JJ	.
.	.	.	.	16bb\LL	.
.	.	.	.	16ddd\	.
.	.	.	.	16bb\	.
.	.	.	.	16ee\JJ	.
.	.	.	.	16aa\LL	.
.	.	.	.	16ccc#\	.
.	.	.	.	16aa\	.
.	.	.	.	16ee\JJ	.
=100	=100	=100	=100	=100	=100
8E\L]	8r	8r	8r	4gg#\	#
8G#\	8g#\L	8g#/L	8g#/L	.	.
8B\	8b\	8b/	8b/	4ee\	.
8e\	8ee\	8ee/	8ee/	.	.
8B\	8b\	8b/	8b/	4r	.
8G#\J	8g#\J	8g#/J	8g#/J	.	.
=101	=101	=101	=101	=101	=101
4E\	4e\	4e/	4e/	16gg#\LL	#
.	.	.	.	16bb\	.
.	.	.	.	16gg#\	.
.	.	.	.	16dd\JJ	.
4r	4r	4r	4r	16gg#\LL	.
.	.	.	.	16bb\	.
.	.	.	.	16gg#\	.
.	.	.	.	16dd\JJ	.
4r	4r	4r	4r	16gg#\LL	.
.	.	.	.	16bb\	.
.	.	.	.	16gg#\	.
.	.	.	.	16dd\JJ	.
=102	=102	=102	=102	=102	=102
4E\	2.r	2.r	2.r	(16e\LL	7 #
.	.	.	.	16dd\	.
.	.	.	.	16gg#\)	.
.	.	.	.	16bb\JJ	.
4E\	.	.	.	(16e\LL	.
.	.	.	.	16dd\	.
.	.	.	.	16gg#\)	.
.	.	.	.	16bb\JJ	.
4E\	.	.	.	(16e\LL	.
.	.	.	.	16dd\	.
.	.	.	.	16gg#\)	.
.	.	.	.	16bb\JJ	.
=103	=103	=103	=103	=103	=103
4AA/	2.r	2.r	2.r	16cc#\LL	.
.	.	.	.	16ee\	.
.	.	.	.	16cc#\	.
.	.	.	.	16g\JJ	.
4r	.	.	.	16cc#\LL	.
.	.	.	.	16ee\	.
.	.	.	.	16cc#\	.
.	.	.	.	16g\JJ	.
4r	.	.	.	16cc#\LL	.
.	.	.	.	16ee\	.
.	.	.	.	16cc#\	.
.	.	.	.	16g\JJ	.
=104	=104	=104	=104	=104	=104
4A\	2.r	2.r	2.r	16A/LL	7
.	.	.	.	(16g/	.
.	.	.	.	16cc#/	.
.	.	.	.	16ee/JJ)	.
4A\	.	.	.	16A/LL	.
.	.	.	.	(16g/	.
.	.	.	.	16cc#/	.
.	.	.	.	16ee/JJ)	.
4A\	.	.	.	16A/LL	.
.	.	.	.	(16g/	.
.	.	.	.	16cc#/	.
.	.	.	.	16ee/JJ)	.
=105	=105	=105	=105	=105	=105
4F#\	2.r	2.r	2.r	16aa#\LL	7 #
.	.	.	.	16ccc#\	.
.	.	.	.	16aa#\	.
.	.	.	.	16ee\JJ	.
4r	.	.	.	16aa#\LL	.
.	.	.	.	16ccc#\	.
.	.	.	.	16aa#\	.
.	.	.	.	16ee\JJ	.
4r	.	.	.	16aa#\LL	.
.	.	.	.	16ccc#\	.
.	.	.	.	16aa#\	.
.	.	.	.	16ee\JJ	.
=106	=106	=106	=106	=106	=106
4F#\	2.r	2.r	2.r	(16f#\LL	7 #
.	.	.	.	16ee\	.
.	.	.	.	16aa#\)	.
.	.	.	.	16ccc#\JJ	.
4F#\	.	.	.	(16f#\LL	.
.	.	.	.	16ee\	.
.	.	.	.	16aa#\)	.
.	.	.	.	16ccc#\JJ	.
4F#\	.	.	.	(16f#\LL	.
.	.	.	.	16ee\	.
.	.	.	.	16aa#\)	.
.	.	.	.	16ccc#\JJ	.
=107	=107	=107	=107	=107	=107
4BB/	2.r	2.r	2.r	16dd#\LL	7 #
.	.	.	.	16ff#\	.
.	.	.	.	16dd#\	.
.	.	.	.	16a\JJ	.
4r	.	.	.	16dd#\LL	.
.	.	.	.	16ff#\	.
.	.	.	.	16dd#\	.
.	.	.	.	16a\JJ	.
4r	.	.	.	16dd#\LL	.
.	.	.	.	16ff#\	.
.	.	.	.	16dd#\	.
.	.	.	.	16a\JJ	.
=108	=108	=108	=108	=108	=108
4B\	2.r	2.r	2.r	(16B/LL	7 #
.	.	.	.	16a/	.
.	.	.	.	16dd#/)	.
.	.	.	.	16ff#/JJ	.
4B\	.	.	.	(16B/LL	.
.	.	.	.	16a/	.
.	.	.	.	16dd#/)	.
.	.	.	.	16ff#/JJ	.
4B\	.	.	.	(16B/LL	.
.	.	.	.	16a/	.
.	.	.	.	16dd#/)	.
.	.	.	.	16ff#/JJ	.
=109	=109	=109	=109	=109	=109
4G#\	2.r	2.r	2.r	16bb#\LL	7 #5 #
.	.	.	.	16ddd#\	.
.	.	.	.	16bb#\	.
.	.	.	.	16ff#\JJ	.
4r	.	.	.	16bb#\LL	.
.	.	.	.	16ddd#\	.
.	.	.	.	16bb#\	.
.	.	.	.	16ff#\JJ	.
4r	.	.	.	16bb#\LL	.
.	.	.	.	16ddd#\	.
.	.	.	.	16bb#\	.
.	.	.	.	16ff#\JJ	.
=110	=110	=110	=110	=110	=110
4G#\	2.r	2.r	2.r	(16g#\LL	7 #5 #
.	.	.	.	16ff#\	.
.	.	.	.	16bb#\)	.
.	.	.	.	16ddd#\JJ	.
4G#\	.	.	.	(16g#\LL	.
.	.	.	.	16ff#\	.
.	.	.	.	16bb#\)	.
.	.	.	.	16ddd#\JJ	.
4G#\	.	.	.	(16g#\LL	.
.	.	.	.	16ff#\	.
.	.	.	.	16bb#\)	.
.	.	.	.	16ddd#\JJ	.
=111	=111	=111	=111	=111	=111
4C#/	2.r	2.r	2.r	16ee#\LL	7 #5 #
.	.	.	.	16gg#\	.
.	.	.	.	16ee#\	.
.	.	.	.	16b\JJ	.
4r	.	.	.	16ee#\LL	.
.	.	.	.	16gg#\	.
.	.	.	.	16ee#\	.
.	.	.	.	16b\JJ	.
4r	.	.	.	16ee#\LL	.
.	.	.	.	16gg#\	.
.	.	.	.	16ee#\	.
.	.	.	.	16b\JJ	.
=112	=112	=112	=112	=112	=112
4C#/	2.r	2.r	2.r	(16c#\LL	7 #5 #
.	.	.	.	16b\	.
.	.	.	.	16ee#\)	.
.	.	.	.	16gg#\JJ	.
4C#/	.	.	.	(16c#\LL	.
.	.	.	.	16b\	.
.	.	.	.	16ee#\)	.
.	.	.	.	16gg#\JJ	.
4C#/	.	.	.	(16c#\LL	.
.	.	.	.	16b\	.
.	.	.	.	16ee#\)	.
.	.	.	.	16gg#\JJ	.
*>4a	*>4a	*>4a	*>4a	*>4a	*>4a
=113	=113	=113	=113	=113	=113
2.F#\	2.r	2.r	2.r	16aa\LL	.
.	.	.	.	16ff#\	.
.	.	.	.	16aa\	.
.	.	.	.	16gg#\JJ	.
.	.	.	.	16aa\LL	.
.	.	.	.	16ff#\	.
.	.	.	.	16aa\	.
.	.	.	.	16gg#\JJ	.
.	.	.	.	16aa\LL	.
.	.	.	.	16ff#\	.
.	.	.	.	16aa\	.
.	.	.	.	16ee\JJ	.
=114	=114	=114	=114	=114	=114
2.BB/	2.r	2.r	2.r	16dd\LL	7
.	.	.	.	16aa\	.
.	.	.	.	16dd\	.
.	.	.	.	16ddd\JJ	.
.	.	.	.	16dd\LL	.
.	.	.	.	16bb\	.
.	.	.	.	16dd\	.
.	.	.	.	16ddd\JJ	.
.	.	.	.	16dd\LL	.
.	.	.	.	16bb\	.
.	.	.	.	16dd\	.
.	.	.	.	16aa\JJ	.
=115	=115	=115	=115	=115	=115
2.E\	2.r	2.r	2.r	16gg#\LL	#
.	.	.	.	16ee\	.
.	.	.	.	16gg#\	.
.	.	.	.	16ff#\JJ	.
.	.	.	.	16gg#\LL	.
.	.	.	.	16ee\	.
.	.	.	.	16gg#\	.
.	.	.	.	16ff#\JJ	.
.	.	.	.	16gg#\LL	.
.	.	.	.	16ee\	.
.	.	.	.	16gg#\	.
.	.	.	.	16dd\JJ	.
=116	=116	=116	=116	=116	=116
2.AA/	2.r	2.r	2.r	16cc#\LL	#7
.	.	.	.	16gg#\	.
.	.	.	.	16cc#\	.
.	.	.	.	16ccc#\JJ	.
.	.	.	.	16cc#\LL	.
.	.	.	.	16aa\	.
.	.	.	.	16cc#\	.
.	.	.	.	16ccc#\JJ	.
.	.	.	.	16cc#\LL	.
.	.	.	.	16aa\	.
.	.	.	.	16cc#\	.
.	.	.	.	16gg#\JJ	.
=117	=117	=117	=117	=117	=117
2.D\	2.r	2.r	2.r	16ff#\LL	.
.	.	.	.	16dd\	.
.	.	.	.	16ff#\	.
.	.	.	.	16ee\JJ	.
.	.	.	.	16ff#\LL	.
.	.	.	.	16dd\	.
.	.	.	.	16ff#\	.
.	.	.	.	16ee\JJ	.
.	.	.	.	16ff#\LL	.
.	.	.	.	16dd\	.
.	.	.	.	16ff#\	.
.	.	.	.	16cc#\JJ	.
=118	=118	=118	=118	=118	=118
2.GG#/	2.r	2.r	2.r	16b\LL	7
.	.	.	.	16ff#\	.
.	.	.	.	16b\	.
.	.	.	.	16bb\JJ	.
.	.	.	.	16b\LL	.
.	.	.	.	16gg#\	.
.	.	.	.	16b\	.
.	.	.	.	16bb\JJ	.
.	.	.	.	16b\LL	.
.	.	.	.	16gg#\	.
.	.	.	.	16b\	.
.	.	.	.	16ff#\JJ	.
=119	=119	=119	=119	=119	=119
2.C#/	2.r	2.r	2.r	16ee#\LL	7 #
.	.	.	.	16cc#\	.
.	.	.	.	16ee#\	.
.	.	.	.	16dd\JJ	.
.	.	.	.	16ee#\LL	.
.	.	.	.	16cc#\	.
.	.	.	.	16bb\	.
.	.	.	.	16cc#\JJ	.
.	.	.	.	16aa\LL	.
.	.	.	.	16cc#\	.
.	.	.	.	16gg#\	.
.	.	.	.	16cc#\JJ	.
=120	=120	=120	=120	=120	=120
8FF#\L	8r	2.a/	2.ff#\	4aa/	.
8F#\	8A/L	.	.	.	.
*	*	*	*	*back-4	*
!	!	!	!	!4cc#\!4f#\	!
*	*	*	*	*endback	*
8A\	8c#/	.	.	2ff#\	.
8c#\	8f#/	.	.	.	.
8A\	8c#/	.	.	.	.
8F#\J	8A/J	.	.	.	.
=121	=121	=121	=121	=121	=121
8r	8r	2.f#/	2.a/	2.a/	.
8F#\L	8A/L	.	.	.	.
8A\	8c#/	.	.	.	.
8c#\	8f#/	.	.	.	.
8A\	8c#/	.	.	.	.
8F#\J	8A/J	.	.	.	.
=122	=122	=122	=122	=122	=122
2BB/	2d\	8g#/L	8b\L	8b\L	.
.	.	8b/	8dd\	8dd\	.
.	.	8a/	8cc#\	8cc#\	.
.	.	8g#/	8b\	8b\	.
4C#/	4e#\	8f#/	8a\	8a\	#
.	.	8e#/J	8g#\J	8g#\J	.
=123	=123	=123	=123	=123	=123
4FF#/	4c#\	4f#/	8a/L	16a\LL	.
.	.	.	.	16ccc#\	.
.	.	.	8f#/J	16ccc#\	.
.	.	.	.	16fff#\JJ	.
4r	4r	4r	4r	16fff#\LL	.
.	.	.	.	16ccc#\	.
.	.	.	.	16ccc#\	.
.	.	.	.	16aa\JJ	.
4r	4r	4r	4r	16aa\LL	.
.	.	.	.	16ccc#\	.
.	.	.	.	16ccc#\	.
.	.	.	.	16fff#\JJ	.
=124	=124	=124	=124	=124	=124
4F#\	2.r	2.r	2.r	16aa#\LL	#
.	.	.	.	16ccc#\	.
.	.	.	.	16ccc#\	.
.	.	.	.	16fff#\JJ	.
4r	.	.	.	16fff#\LL	.
.	.	.	.	16ccc#\	.
.	.	.	.	16ccc#\	.
.	.	.	.	16aa#\JJ	.
4r	.	.	.	16aa#\LL	.
.	.	.	.	16ccc#\	.
.	.	.	.	16ccc#\	.
.	.	.	.	16fff#\JJ	.
=125	=125	=125	=125	=125	=125
4F#\	2.r	2.r	2.r	16aa#\LL	#
.	.	.	.	16ccc#\	.
.	.	.	.	16ccc#\	.
.	.	.	.	16eee\JJ	.
4r	.	.	.	16eee\LL	.
.	.	.	.	16ccc#\	.
.	.	.	.	16ccc#\	.
.	.	.	.	16aa#\JJ	.
4r	.	.	.	16aa#\LL	.
.	.	.	.	16ccc#\	.
.	.	.	.	16ccc#\	.
.	.	.	.	16eee\JJ	.
=126	=126	=126	=126	=126	=126
8BB/L	8r	2.ff#\	2.bb\	4ddd\	.
8BB/	8d\L	.	.	.	.
8D/	8f#\	.	.	2bb\	.
8F#/	8b\	.	.	.	.
8D/	8f#\	.	.	.	.
8BB/J	8d\J	.	.	.	.
=127	=127	=127	=127	=127	=127
8r	8r	2.b\	2.dd\	2.dd\	.
8BB/L	8d\L	.	.	.	.
8D/	8f#\	.	.	.	.
8F#/	8b\	.	.	.	.
8D/	8f#\	.	.	.	.
8BB/J	8d\J	.	.	.	.
=128	=128	=128	=128	=128	=128
2E\	2g\	8cc#\L	8ee\L	8ee\L	.
.	.	8ee\	8gg\	8gg\	.
.	.	8dd\	8ff#\	8ff#\	.
.	.	8cc#\	8ee\	8ee\	.
4F#\	4a#\	8b\	8dd\	8dd\	#
.	.	8a#\J	8cc#\J	8cc#\J	.
=129	=129	=129	=129	=129	=129
4BB/	4f#\	4b\	8dd\L	16dd\LL	.
.	.	.	.	16bb\	.
.	.	.	8b\J	16bb\	.
.	.	.	.	16ddd\JJ	.
4r	4r	4r	4r	16ddd\LL	.
.	.	.	.	16bb\	.
.	.	.	.	16bb\	.
.	.	.	.	16ff#\JJ	.
4r	4r	4r	4r	16ff#\LL	.
.	.	.	.	16bb\	.
.	.	.	.	16bb\	.
.	.	.	.	16ddd\JJ	.
=130	=130	=130	=130	=130	=130
4C#/	2.r	2.r	2.r	16ee#\LL	7 #
.	.	.	.	16bb\	.
.	.	.	.	16bb\	.
.	.	.	.	16ddd\JJ	.
4r	.	.	.	16ddd\LL	.
.	.	.	.	16bb\	.
.	.	.	.	16bb\	.
.	.	.	.	16ee#\JJ	.
4r	.	.	.	16ee#\LL	.
.	.	.	.	16bb\	.
.	.	.	.	16bb\	.
.	.	.	.	16ddd\JJ	.
=131	=131	=131	=131	=131	=131
4C#/	2.r	2.r	2.r	16cc#\LL	#
.	.	.	.	16ee#\	.
.	.	.	.	16ee#\	.
.	.	.	.	16gg#\JJ	.
4r	.	.	.	16gg#\LL	.
.	.	.	.	16ee#\	.
.	.	.	.	16ee#\	.
.	.	.	.	16cc#\JJ	.
4r	.	.	.	16cc#\LL	.
.	.	.	.	16gg#\	.
.	.	.	.	16gg#\	.
.	.	.	.	16bb\JJ	.
=132	=132	=132	=132	=132	=132
2.F#\	2.a\	8r	8r	8aa\L	.
.	.	8a\L	8cc#\L	8cc#\	.
.	.	8cc#\	8ff#\	8ff#\	.
.	.	8ff#\	8aa\	8aa\	.
.	.	8cc#\	8ff#\	8ff#\	.
.	.	8a\J	8cc#\J	8cc#\J	.
=133	=133	=133	=133	=133	=133
2.AA/	2.c#\	8r	8r	8r	6
.	.	8a\L	8cc#\L	8cc#\L	.
.	.	8cc#\	8ff#\	8ff#\	.
.	.	8ff#\	8aa\	8aa\	.
.	.	8cc#\	8ff#\	8ff#\	.
.	.	8a\J	8cc#\J	8cc#\J	.
=134	=134	=134	=134	=134	=134
8BB/L	4.B/	8dd\L	4.gg#\	4.gg#\	.
8D/	.	8bb\	.	.	.
8C#/	.	8aa\	.	.	.
8BB/	8B/	8gg#\	8gg#\	8gg#\	.
8AA/	8c#\L	8ff#\	8aa\L	8aa\L	.
8GG#/J	8d\J	8ee#\J	8bb\J	8bb\J	.
=135	=135	=135	=135	=135	=135
4AA/	4c#\	4ff#\	4aa\	16aa\LL	.
.	.	.	.	16ff#\	.
.	.	.	.	16ff#\	.
.	.	.	.	16aa\JJ	.
4r	4r	4r	4r	16aa\LL	.
.	.	.	.	16ff#\	.
.	.	.	.	16ff#\	.
.	.	.	.	16cc#\JJ	.
4r	4r	4r	4r	16cc#\LL	.
.	.	.	.	16ff#\	.
.	.	.	.	16ff#\	.
.	.	.	.	16aa\JJ	.
=136	=136	=136	=136	=136	=136
4AA#/	2.r	2.r	2.r	16cc#\LL	7
.	.	.	.	16ee\	.
.	.	.	.	16ee\	.
.	.	.	.	16gg\JJ	.
4r	.	.	.	16gg\LL	.
.	.	.	.	16ee\	.
.	.	.	.	16ee\	.
.	.	.	.	16cc#\JJ	.
4r	.	.	.	16cc#\LL	.
.	.	.	.	16ee\	.
.	.	.	.	16ee\	.
.	.	.	.	16gg\JJ	.
=137	=137	=137	=137	=137	=137
4F#\	2.r	2.r	2.r	16a#\LL	7 #
.	.	.	.	16cc#\	.
.	.	.	.	16cc#\	.
.	.	.	.	16ee\JJ	.
4r	.	.	.	16ee\LL	.
.	.	.	.	16cc#\	.
.	.	.	.	16cc#\	.
.	.	.	.	16a#\JJ	.
4r	.	.	.	16a#\LL	.
.	.	.	.	16cc#\	.
.	.	.	.	16cc#\	.
.	.	.	.	16ee\JJ	.
=138	=138	=138	=138	=138	=138
2.B\	2.d\	8r	8r	8dd\L	.
.	.	8f#/L	8dd\L	8dd\	.
.	.	8b/	8ff#\	8ff#\	.
.	.	8dd/	8bb\	8bb\	.
.	.	8b/	8ff#\	8ff#\	.
.	.	8f#/J	8dd\J	8dd\J	.
=139	=139	=139	=139	=139	=139
2.D\	2.f#\	8r	8r	8r	6
.	.	8f#/L	8dd\L	8dd\L	.
.	.	8b/	8ff#\	8ff#\	.
.	.	8dd/	8bb\	8bb\	.
.	.	8b/	8ff#\	8ff#\	.
.	.	8f#/J	8dd\J	8dd\J	.
=140	=140	=140	=140	=140	=140
8E\L	4.e\	8f#\L	4.cc#\	4.cc#\	6
8G\	.	8ee\	.	.	.
8F#\	.	8dd\	.	.	.
8E\	8e\	8cc#\	8cc#\	8cc#\	.
8D\	8f#\L	8b\	8dd\L	8dd\L	.
8C#\J	8g\J	8a#\J	8ee\J	8ee\J	.
=141	=141	=141	=141	=141	=141
4D\	4f#\	4b\	4dd\	16dd\LL	6
.	.	.	.	16dd\	.
.	.	.	.	16dd\	.
.	.	.	.	16ff#\JJ	.
4r	4r	4r	4r	16ff#\LL	.
.	.	.	.	16b\	.
.	.	.	.	16b\	.
.	.	.	.	16dd\JJ	.
4r	4r	4r	4r	16dd\LL	.
.	.	.	.	16ff#\	.
.	.	.	.	16ff#\	.
.	.	.	.	16gg\JJ	.
=142	=142	=142	=142	=142	=142
4E\	2.r	2.r	2.r	16gg\LL	6 5
.	.	.	.	16ee\	.
.	.	.	.	16ee\	.
.	.	.	.	16gg\JJ	.
4r	.	.	.	16gg\LL	.
.	.	.	.	16b\	.
.	.	.	.	16b\	.
.	.	.	.	16ee\JJ	.
4r	.	.	.	16ee\LL	.
.	.	.	.	16gg\	.
.	.	.	.	16gg\	.
.	.	.	.	16aa#\JJ	.
=143	=143	=143	=143	=143	=143
4F#\	2.r	2.r	2.r	16aa#\LL	#
.	.	.	.	16ee\	.
.	.	.	.	16ee\	.
.	.	.	.	16aa#\JJ	.
4r	.	.	.	16aa#\LL	.
.	.	.	.	16cc#\	.
.	.	.	.	16cc#\	.
.	.	.	.	16ff#\JJ	.
4r	.	.	.	16ff#\LL	.
.	.	.	.	16aa#\	.
.	.	.	.	16aa#\	.
.	.	.	.	16bb\JJ	.
=144	=144	=144	=144	=144	=144
8BB/L	2.r	2.r	2.r	4.bb\	.
8C#/	.	.	.	.	.
8D/	.	.	.	.	6
8E/J	.	.	.	(16aa\LL	.
.	.	.	.	16gg\JJ)	.
4F#\	.	.	.	(16ff#\LL	#
.	.	.	.	16ee\)	.
.	.	.	.	(16dd\	.
.	.	.	.	16cc#\JJ)	.
=145	=145	=145	=145	=145	=145
4BB/	2.r	2.r	2.r	(24cc#P/	.
.	.	.	.	24bp\L	.
.	.	.	.	12a\	.
.	.	.	.	12b\J)	.
4AA#/	.	.	.	(24ddP/	6 5
.	.	.	.	24cc#p\L	.
.	.	.	.	12b\	.
.	.	.	.	12cc#\J)	.
4BB/	.	.	.	(24eeP/	.
.	.	.	.	24ddp\L	.
.	.	.	.	12cc#\	.
.	.	.	.	12dd\J)	.
=146	=146	=146	=146	=146	=146
4C#/	2.r	2.r	2.r	(24ff#P/	.
.	.	.	.	24eep\L	.
.	.	.	.	12dd\	.
.	.	.	.	12ee\J)	.
4D\	.	.	.	(24ggP/	.
.	.	.	.	24ff#p\L	.
.	.	.	.	12ee\	.
.	.	.	.	12ff#\J)	.
4E\	.	.	.	(24aaP/	#
.	.	.	.	24gg#p\L	.
.	.	.	.	12ff#\	.
.	.	.	.	12gg#\J)	.
=147	=147	=147	=147	=147	=147
4F#\	2.r	2.r	2.r	(24bbP/	#
.	.	.	.	24aa#p\L	.
.	.	.	.	12gg#\	.
.	.	.	.	12aa#\J)	.
4G\	.	.	.	(24ccc#P/	.
.	.	.	.	24bbp\L	.
.	.	.	.	12aa#\	.
.	.	.	.	12bb\J)	.
4E\	.	.	.	(24dddP/	n6
.	.	.	.	24cccnp\L	.
.	.	.	.	12bb\	.
.	.	.	.	12ccc\J)	.
=148	=148	=148	=148	=148	=148
8F#\L	2.r	2.r	2.r	[4eee\	7 #
8F#\J	.	.	.	.	.
4FF#/	.	.	.	(12eee\L]	.
.	.	.	.	12ddd\	.
.	.	.	.	12ccc#\J	.
4r	.	.	.	12bb\L	.
.	.	.	.	12aa\	.
.	.	.	.	12gg\J)	.
=149	=149	=149	=149	=149	=149
8r	2.r	2.r	2.r	[4ff#\	.
8F#\	.	.	.	.	6 4
4FF#/	.	.	.	(12ff#\L]	.
.	.	.	.	12gg\	.
.	.	.	.	12ff#\J	.
4r	.	.	.	12gg\L	.
.	.	.	.	12dd#\	.
.	.	.	.	12ee\J)	.
=150	=150	=150	=150	=150	=150
8r	2.r	2.r	2.r	[4aa#\	.
8F#\	.	.	.	.	#
4FF#/	.	.	.	(12aa#\L]	.
.	.	.	.	12ggn\	.
.	.	.	.	12ff#\J	.
4r	.	.	.	12gg\L	.
.	.	.	.	12dd#\	.
.	.	.	.	12ee\J)	.
=151	=151	=151	=151	=151	=151
8r	2.r	2.r	2.r	(12ddd\L	.
.	.	.	.	12aa#\	.
8BB/	.	.	.	.	.
.	.	.	.	12bb\J)	.
4F#\	.	.	.	4.aa#t\	4
4FF#/	.	.	.	.	#
.	.	.	.	8bb\	.
=152	=152	=152	=152	=152	=152
8BB/L	8r	2.r	2.bb\	2.bb\	.
8BB/	8d\L	.	.	.	.
8D/	8f#\	.	.	.	.
8F#/	8b\	.	.	.	.
8D/	8f#\	.	.	.	.
8BB/J	8d\J	.	.	.	.
=153	=153	=153	=153	=153	=153
8r	8r	2.r	2.dd\	2.dd\	.
8BB/L	8d\L	.	.	.	.
8D/	8f#\	.	.	.	.
8F#/	8b\	.	.	.	.
8D/	8f#\	.	.	.	.
8BB/J	8d\J	.	.	.	.
*>4b	*>4b	*>4b	*>4b	*>4b	*>4b
!! RV 210 / Turin: MS Giord.30, Variant D
=113	=113	=113	=113	=113	=113
4F#\	2.r	2.r	2.r	8ff#\L	.
.	.	.	.	8aa\	.
4F#\	.	.	.	8aa\	.
.	.	.	.	8ccc#\	.
4F#\	.	.	.	8ccc#\	.
.	.	.	.	8fff#\J	.
=114	=114	=114	=114	=114	=114
4F#\	2.r	2.r	2.r	16fff#\LL	.
.	.	.	.	16ccc#\	.
.	.	.	.	16aa\	.
.	.	.	.	16ff#\JJ	.
4r	.	.	.	16fff#\LL	.
.	.	.	.	16ccc#\	.
.	.	.	.	16aa\	.
.	.	.	.	16ff#\JJ	.
4r	.	.	.	16fff#\LL	.
.	.	.	.	16ccc#\	.
.	.	.	.	16aa\	.
.	.	.	.	16ff#\JJ	.
=115	=115	=115	=115	=115	=115
4F#\	2.r	2.r	2.r	8fff#\L	.
.	.	.	.	8cc#\J	.
4r	.	.	.	8ff#\L	.
.	.	.	.	16ee\L	.
.	.	.	.	16dd\JJ	.
4r	.	.	.	8cc#\L	.
.	.	.	.	8b\J	.
=116	=116	=116	=116	=116	=116
2.r	2.r	4f#/	4f#/	8a\L	.
.	.	.	.	8cc#\ 8a\	.
.	.	4f#/	4f#/	8ff#\ 8a\	.
.	.	.	.	8cc#\ 8a\	.
.	.	4f#/	4f#/	8ff#\ 8a\	.
.	.	.	.	8cc#\J 8a\	.
=117	=117	=117	=117	=117	=117
2.r	2.r	4b\	4b\	8dd\L 8b\	.
.	.	.	.	16dd\LL 16b\	.
.	.	.	.	16cc#\JJ 16a\	.
.	.	4b\	4b\	8dd\ 8b\	.
.	.	.	.	8dd\ 8b\	.
.	.	4b\	4b\	8dd\ 8b\	.
.	.	.	.	8cc#\J 8a\	.
=118	=118	=118	=118	=118	=118
2.r	2.r	4e/	4e/	8b/L 8g#/	.
.	.	.	.	8b/ 8g#/	.
.	.	4e/	4e/	8ee/ 8g#/	.
.	.	.	.	8b/ 8g#/	.
.	.	4e/	4e/	8ee/ 8g#/	.
.	.	.	.	8b/J 8g#/	.
=119	=119	=119	=119	=119	=119
2.r	2.r	4a/	4a/	8cc#/L 8a/	.
.	.	.	.	16cc#/LL 16a/	.
.	.	.	.	16b/JJ 16g#/	.
.	.	4a/	4a/	8cc#/ 8a/	.
.	.	.	.	8cc#/ 8a/	.
.	.	4a/	4a/	8cc#/ 8a/	.
.	.	.	.	8b/J 8g#/	.
=120	=120	=120	=120	=120	=120
2.r	2.r	4d/	4d/	8a/L 8f#/	.
.	.	.	.	8a/ 8f#/	.
.	.	4d/	4d/	8dd/ 8f#/	.
.	.	.	.	8a/ 8f#/	.
.	.	4d/	4d/	8dd/ 8f#/	.
.	.	.	.	8a/J 8f#/	.
=121	=121	=121	=121	=121	=121
2.r	2.r	4g#/	4g#/	8b/L 8g#/	.
.	.	.	.	16b/LL 16g#/	.
.	.	.	.	16a/JJ 16f#/	.
.	.	4g#/	4g#/	8b/ 8g#/	.
.	.	.	.	8b/ 8g#/	.
.	.	4g#/	4g#/	8b/ 8g#/	.
.	.	.	.	8a/J 8f#/	.
=122	=122	=122	=122	=122	=122
2.r	2.r	4c#/	4c#/	8g#/L 8e#/	.
.	.	.	.	8g#/ 8e#/	.
.	.	4c#/	4c#/	8cc#/ 8e#/	.
.	.	.	.	8g#/ 8e#/	.
.	.	4c#/	4c#/	8cc#/ 8e#/	.
.	.	.	.	8g#/J 8e#/	.
=123	=123	=123	=123	=123	=123
2.r	2.r	8f#/	8f#/	8a/ 8f#/	.
.	.	4c#/	4c#/	4g#/ 4e#/	.
.	.	8c#/L	8c#/L	8g#/L 8e#/	.
.	.	8e#/	8e#/	8cc#/ 8e#/	.
.	.	8c#/J	8c#/J	8g#/J 8e#/	.
=124	=124	=124	=124	=124	=124
2.r	2.r	8f#/	8f#/	8a/ 8f#/	.
.	.	4c#/	4c#/	4g#/ 4e#/	.
.	.	8c#/L	8c#/L	8g#/L 8e#/	.
.	.	8e#/	8e#/	8cc#/ 8e#/	.
.	.	8c#/J	8c#/J	8g#/J 8e#/	.
=125	=125	=125	=125	=125	=125
2.r	2.r	4f#/	4f#/	4a/ 4f#/	.
.	.	2e/	2e/	(4b\	.
.	.	.	.	4a#/)	.
=126	=126	=126	=126	=126	=126
2.r	2.r	4d/	4d/	4b\	.
.	.	2g#/	2g#/	(4cc#\	.
.	.	.	.	4b#\)	.
=127	=127	=127	=127	=127	=127
2.r	2.r	4e#/	4e#/	4cc#\	.
.	.	8f#/L	8f#/L	[2ff#\	.
.	.	8g#/	8g#/	.	.
.	.	8a/	8a/	.	.
.	.	8g#/J	8g#/J	.	.
=128	=128	=128	=128	=128	=128
2.r	2.r	4f#/	4f#/	8ff#\L]	.
.	.	.	.	16ee\L	.
.	.	.	.	16dd\JJ	.
.	.	4e#/	4e#/	16cc#\LL	.
.	.	.	.	16dd\	.
.	.	.	.	16cc#\	.
.	.	.	.	16b\JJ	.
.	.	4c#/	4c#/	16a/LL	.
.	.	.	.	16b/	.
.	.	.	.	16a/	.
.	.	.	.	16g#/JJ	.
=129	=129	=129	=129	=129	=129
2.r	2.r	4f#/	4f#/	8a/L	.
.	.	.	.	16g#/L	.
.	.	.	.	16f#/JJ	.
.	.	4B/	4B/	2g#t/	.
.	.	4c#/	4c#/	.	.
=130	=130	=130	=130	=130	=130
8r	8r	2.a/	2.ff#\	4f#/	.
8F#\L	8A\L	.	.	.	.
8A\	8c#\	.	.	2ff#\	.
8c#\	8f#\	.	.	.	.
8A\	8c#\	.	.	.	.
8F#\J	8A\J	.	.	.	.
=131	=131	=131	=131	=131	=131
8r	8r	2.f#/	2.a/	2.a/	.
8F#\L	8A\L	.	.	.	.
8A\	8c#\	.	.	.	.
8c#\	8f#\	.	.	.	.
8A\	8c#\	.	.	.	.
8F#\J	8A\J	.	.	.	.
=132	=132	=132	=132	=132	=132
2BB/	2d\	8g#/L	8b\L	8b\L	.
.	.	8b/	8dd\	8dd\	.
.	.	8a/	8cc#\	8cc#\	.
.	.	8g#/	8b\	8b\	.
4C#/	4e#\	8f#/	8a\	8a\	.
.	.	8e#/J	8g#\J	8g#\J	.
=133	=133	=133	=133	=133	=133
4FF#/	4c#\	4f#/	8a/L	(16a\LL	.
.	.	.	.	16ff#\	.
.	.	.	8f#/J	16aa\	.
.	.	.	.	16ccc#\JJ)	.
4r	4r	4r	4r	(16cc#\LL	.
.	.	.	.	16ff#\	.
.	.	.	.	16aa\	.
.	.	.	.	16ccc#\JJ)	.
4r	4r	4r	4r	16ccc#\LL	.
.	.	.	.	16aa\	.
.	.	.	.	16ff#\	.
.	.	.	.	16cc#\JJ	.
=134	=134	=134	=134	=134	=134
4F#\	2.r	2.r	2.r	(16cc#\LL	.
.	.	.	.	16ff#\	.
.	.	.	.	16aa\	.
.	.	.	.	16ccc#\JJ)	.
4r	.	.	.	(16cc#\LL	.
.	.	.	.	16ff#\	.
.	.	.	.	16aa\	.
.	.	.	.	16ccc#\JJ)	.
4r	.	.	.	16ccc#\LL	.
.	.	.	.	16aa\	.
.	.	.	.	16ff#\	.
.	.	.	.	16cc#\JJ	.
=135	=135	=135	=135	=135	=135
4F#\	2.r	2.r	2.r	(16cc#\LL	7 #
.	.	.	.	16ee\	.
.	.	.	.	16aa#\	.
.	.	.	.	16ccc#\JJ)	.
4r	.	.	.	(16cc#\LL	.
.	.	.	.	16ee\	.
.	.	.	.	16aa#\	.
.	.	.	.	16ccc#\JJ)	.
4r	.	.	.	16ccc#\LL	.
.	.	.	.	16aa#\	.
.	.	.	.	16ee\	.
.	.	.	.	16cc#\JJ	.
=136	=136	=136	=136	=136	=136
4F#\	2.r	2.r	2.r	(16cc#\LL	.
.	.	.	.	16ee\	.
.	.	.	.	16aa#\	.
.	.	.	.	16ccc#\JJ)	.
4r	.	.	.	(16cc#\LL	.
.	.	.	.	16ee\	.
.	.	.	.	16aa#\	.
.	.	.	.	16ccc#\JJ)	.
4r	.	.	.	16ccc#\LL	.
.	.	.	.	16aa#\	.
.	.	.	.	16ee\	.
.	.	.	.	16cc#\JJ	.
=137	=137	=137	=137	=137	=137
8BB/L	8r	2.ff#\	2.bb\	2.bb\	.
8BB/	8d\L	.	.	.	.
8D/	8f#\	.	.	.	.
8F#/	8b\	.	.	.	.
8D/	8f#\	.	.	.	.
8BB/J	8d\J	.	.	.	.
=138	=138	=138	=138	=138	=138
8r	8r	2.b\	2.dd\	2.dd\	.
8BB/L	8d\L	.	.	.	.
8D/	8f#\	.	.	.	.
8F#/	8b\	.	.	.	.
8D/	8f#\	.	.	.	.
8BB/J	8d\J	.	.	.	.
=139	=139	=139	=139	=139	=139
2E\	2g\	8cc#\L	8ee\L	8ee\L	.
.	.	8ee\	8gg\	8gg\	.
.	.	8dd\	8ff#\	8ff#\	.
.	.	8cc#\	8ee\	8ee\	.
4F#\	4a#\	8b\	8dd\	8dd\	#
.	.	8a#\J	8cc#\J	8cc#\J	.
!! N.B. Measures 140-143 absent in this version.
*>5	*>5	*>5	*>5	*>5	*>5
=154	=154	=154	=154	=154	=154
2E\	2g\	2.r	8ee\L	8ee\L	6 5
.	.	.	8gg\	8gg\	.
.	.	.	8ff#\	8ff#\	.
.	.	.	8ee\	8ee\	.
4F#\	4a#\	.	8dd\	8dd\	#
.	.	.	8cc#\J	8cc#\J	.
=155	=155	=155	=155	=155	=155
4BB/	4f#\	8b/L	8dd\L	8dd\L	5
.	.	8f#/J	8b\J	8b\J	.
2AA/	4a\	4ee\	4cc#\	4cc#\	5 3
.	4f#\	4ff#\	4dd#\	4dd#\	6 4+
=156	=156	=156	=156	=156	=156
8GG\L	4B/	2.ee\	8ee\L	8ee\L	6
8G\	.	.	8ee\	8ee\	.
8B\	4r	.	8gg\	8gg\	.
8e\	.	.	8bb\	8bb\	.
8B\	4r	.	8gg\	8gg\	.
8G\J	.	.	8ee\J	8ee\J	.
=157	=157	=157	=157	=157	=157
8r	2.r	2.g/	8r	8r	.
8G\L	.	.	8ee\L	8ee\L	6
8B\	.	.	8gg\	8gg\	.
8e\	.	.	8bb\	8bb\	.
8G\	.	.	8ee\	8ee\	.
8E\J	.	.	8b\J	8b\J	.
=158	=158	=158	=158	=158	=158
2AA/	2.r	8a/L	2ccn\	2ccn\	6 n
.	.	8ccn/	.	.	.
.	.	8b/	.	.	.
.	.	8a/	.	.	.
4BB/	.	8g/	4dd#\	4dd#\	#
.	.	8f#/J	.	.	.
=159	=159	=159	=159	=159	=159
4E\	2.r	8g/L	4ee\	4ee\	.
.	.	8e/J	.	.	.
4D\	.	4f#/	2ddn\	2ddn\	6
4E\	.	4g#/	.	.	7 #
=160	=160	=160	=160	=160	=160
4AA/	2.a\	8a\L	8cc#\L	8cc#\L	.
.	.	8a\	8cc#\	8cc#\	.
4r	.	8cc#\	8ee\	8ee\	.
.	.	8ee\	8aa\	8aa\	.
4r	.	8cc#\	8ee\	8ee\	.
.	.	8a\J	8cc#\J	8cc#\J	.
=161	=161	=161	=161	=161	=161
2.r	2.c#\	8r	8r	8r	.
.	.	8a\L	8cc#\L	8cc#\L	.
.	.	8cc#\	8ee\	8ee\	.
.	.	8ee\	8aa\	8aa\	.
.	.	8cc#\	8ee\	8ee\	.
.	.	8a\J	8cc#\J	8cc#\J	.
=162	=162	=162	=162	=162	=162
2.r	8d\L	2ff#\	2aa\	2aa\	.
.	8f#\	.	.	.	.
.	8e\	.	.	.	.
.	8d\	.	.	.	.
.	8c#\	4gg#\	4bb\	4bb\	.
.	8B\J	.	.	.	.
=163	=163	=163	=163	=163	=163
2.r	8c#/L	4aa\	4ee\	4ee\	.
.	8A/J	.	.	.	.
.	4B/	2ggn\	4dd\	4dd\	.
.	4c#\	.	4ee\	4ee\	.
=164	=164	=164	=164	=164	=164
2.d\	8d\L	8ff#\L	8a\L	8a\L	.
.	8d\	8a\	8dd\	8dd\	.
.	8f#\	8dd\	8ff#\	8ff#\	.
.	8a\	8ff#\	8aa\	8aa\	.
.	8f#\	8dd\	8ff#\	8ff#\	.
.	8d\J	8a\J	8dd\J	8dd\J	.
=165	=165	=165	=165	=165	=165
2.F#\	8r	8r	8r	8r	6
.	8d\L	8a\L	8dd\L	8dd\L	.
.	8f#\	8dd\	8ff#\	8ff#\	.
.	8a\	8ff#\	8aa\	8aa\	.
.	8f#\	8dd\	8ff#\	8ff#\	.
.	8d\J	8a\J	8dd\J	8dd\J	.
=166	=166	=166	=166	=166	=166
8G\L	8B/L	2b\	2dd\	2dd\	.
8B\	8d/	.	.	.	.
8A\	8c#/	.	.	.	.
8G\	8B/	.	.	.	.
8F#\	8A/	4cc#\	4ee\	4ee\	6
8E\J	8G/J	.	.	.	.
=167	=167	=167	=167	=167	=167
8F#\L	4F#/	8dd\L	8a\L	8a\L	6
8D\J	.	8a\	8dd\	8dd\	.
4r	4r	8dd\	8ff#\	8ff#\	.
.	.	8ff#\	8aa\	8aa\	.
4r	4r	8dd\	8ff#\	8ff#\	.
.	.	8a\J	8dd\J	8dd\J	.
=168	=168	=168	=168	=168	=168
8r	8r	4cc#\	4ee\	4ee\	.
8AA/L	8c#\L	.	.	.	.
8C#/	8e\	4r	4r	4r	6
8E/	8g\	.	.	.	.
8C#/	8e\	4r	4r	4r	.
8AA/J	8c#\J	.	.	.	.
=169	=169	=169	=169	=169	=169
4D\	4f#\	8r	8r	8r	.
.	.	8a\L	8dd\L	8dd\L	.
4r	4r	8dd\	8ff#\	8ff#\	.
.	.	8ff#\	8aa\	8aa\	.
4r	4r	8dd\	8ff#\	8ff#\	.
.	.	8a\J	8dd\J	8dd\J	.
=170	=170	=170	=170	=170	=170
8r	8r	4cc#\	4ee\	4ee\	.
8AA/L	8c#\L	.	.	.	.
8C#/	8e\	4r	4r	4r	6
8E/	8g\	.	.	.	.
8C#/	8e\	4r	4r	4r	.
8AA/J	8c#\J	.	.	.	.
*>6a	*>6a	*>6a	*>6a	*>6a	*>6a
=171	=171	=171	=171	=171	=171
4D\	4f#\	2.r	2.r	16d/LL	.
.	.	.	.	16dd/	.
.	.	.	.	16d/	.
.	.	.	.	16ff#/JJ	.
4r	4r	.	.	16d/LL	.
.	.	.	.	16dd/	.
.	.	.	.	16d/	.
.	.	.	.	16ff#/JJ	.
4r	4r	.	.	16d/LL	.
.	.	.	.	16dd/	.
.	.	.	.	16d/	.
.	.	.	.	16ff#/JJ	.
=172	=172	=172	=172	=172	=172
4AA/	2.r	2.r	2.r	16cc#\LL	.
.	.	.	.	16ee\	.
.	.	.	.	16cc#\	.
.	.	.	.	16a\JJ	.
4AA/	.	.	.	16cc#\LL	.
.	.	.	.	16ee\	.
.	.	.	.	16cc#\	.
.	.	.	.	16a\JJ	.
4AA/	.	.	.	16cc#\LL	.
.	.	.	.	16ee\	.
.	.	.	.	16cc#\	.
.	.	.	.	16a\JJ	.
=173	=173	=173	=173	=173	=173
4D\	2.r	2.r	2.r	16d/LL	.
.	.	.	.	16dd/	.
.	.	.	.	16d/	.
.	.	.	.	16ff#/JJ	.
4r	.	.	.	16d/LL	.
.	.	.	.	16dd/	.
.	.	.	.	16d/	.
.	.	.	.	16ff#/JJ	.
4r	.	.	.	16d/LL	.
.	.	.	.	16dd/	.
.	.	.	.	16d/	.
.	.	.	.	16ff#/JJ	.
=174	=174	=174	=174	=174	=174
4AA/	2.r	2.r	2.r	16cc#\LL	.
.	.	.	.	16ee\	.
.	.	.	.	16cc#\	.
.	.	.	.	16a\JJ	.
4AA/	.	.	.	16cc#\LL	.
.	.	.	.	16ee\	.
.	.	.	.	16cc#\	.
.	.	.	.	16a\JJ	.
4AA/	.	.	.	16cc#\LL	.
.	.	.	.	16ee\	.
.	.	.	.	16cc#\	.
.	.	.	.	16a\JJ	.
=175	=175	=175	=175	=175	=175
4D\	2.r	8d/L	8d/L	16a\LL	.
.	.	.	.	16ff#\	.
.	.	8f#/	8f#/	16a\	.
.	.	.	.	16aa\JJ	.
4r	.	8d/	8d/	16a\LL	.
.	.	.	.	16ff#\	.
.	.	8f#/	8f#/	16a\	.
.	.	.	.	16aa\JJ	.
4r	.	8d/	8d/	16a\LL	.
.	.	.	.	16ff#\	.
.	.	8f#/J	8f#/J	16a\	.
.	.	.	.	16aa\JJ	.
=176	=176	=176	=176	=176	=176
2.r	2.r	8e/L	8e/L	16a\LL	.
.	.	.	.	16gg\	.
.	.	8g/	8g/	16a\	.
.	.	.	.	16bb\JJ	.
.	.	8e/	8e/	16a\LL	.
.	.	.	.	16gg\	.
.	.	8g/	8g/	16a\	.
.	.	.	.	16bb\JJ	.
.	.	8e/	8e/	16a\LL	.
.	.	.	.	16gg\	.
.	.	8g/J	8g/J	16a\	.
.	.	.	.	16bb\JJ	.
=177	=177	=177	=177	=177	=177
2.r	2.r	8f#/L	8f#/L	16a\LL	.
.	.	.	.	16aa\	.
.	.	8a/	8a/	16a\	.
.	.	.	.	16ccc#\JJ	.
.	.	8f#/	8f#/	16a\LL	.
.	.	.	.	16aa\	.
.	.	8a/	8a/	16a\	.
.	.	.	.	16ccc#\JJ	.
.	.	8f#/	8f#/	16a\LL	.
.	.	.	.	16aa\	.
.	.	8a/J	8a/J	16a\	.
.	.	.	.	16ccc#\JJ	.
=178	=178	=178	=178	=178	=178
2.r	2.r	8g/L	8g/L	16a\LL	.
.	.	.	.	16bb\	.
.	.	8b/	8b/	16a\	.
.	.	.	.	16ddd\JJ	.
.	.	8g/	8g/	16a\LL	.
.	.	.	.	16bb\	.
.	.	8b/	8b/	16a\	.
.	.	.	.	16ddd\JJ	.
.	.	8g/	8g/	16a\LL	.
.	.	.	.	16bb\	.
.	.	8b/J	8b/J	16a\	.
.	.	.	.	16ddd\JJ	.
=179	=179	=179	=179	=179	=179
2.r	2.r	8a\L	8a\L	16a\LL	.
.	.	.	.	16ccc#\	.
.	.	8cc#\	8cc#\	16a\	.
.	.	.	.	16eee\JJ	.
.	.	8a\	8a\	16a\LL	.
.	.	.	.	16ccc#\	.
.	.	8cc#\	8cc#\	16a\	.
.	.	.	.	16eee\JJ	.
.	.	8a\	8a\	16a\LL	.
.	.	.	.	16ccc#\	.
.	.	8cc#\J	8cc#\J	16a\	.
.	.	.	.	16eee\JJ	.
=180	=180	=180	=180	=180	=180
8r	2.r	4d/	4d/	4.ddd\	.
8d\L	.	.	.	.	.
8A\	.	4r	4r	.	.
8F#\J	.	.	.	8ddd\	.
4D\	.	4r	4r	8ddd\L	.
.	.	.	.	(16ccc#\L	.
.	.	.	.	16bb\JJ)	.
=181	=181	=181	=181	=181	=181
8r	2.r	2.r	2.r	(4aa\	.
8e\L	.	.	.	.	.
8c#\	.	.	.	8gg\L)	.
8A\J	.	.	.	8ccc#\J	.
4AA/	.	.	.	8ccc#\L	.
.	.	.	.	(16bb\L	.
.	.	.	.	16aa\JJ)	.
=182	=182	=182	=182	=182	=182
8r	2.r	2.r	2.r	(4gg\	.
8d\L	.	.	.	.	.
8B\	.	.	.	8ff#\L)	.
8G\J	.	.	.	8bb\J	.
4GG/	.	.	.	8bb\L	.
.	.	.	.	(16aa\L	.
.	.	.	.	16gg\JJ)	.
=183	=183	=183	=183	=183	=183
8r	2.r	2.r	2.r	(4ff#\	.
8c#\L	.	.	.	.	.
8A\	.	.	.	8ee\L)	.
8E\J	.	.	.	8gg\J	.
4AA/	.	.	.	8gg\L	.
.	.	.	.	(16ff#\L	.
.	.	.	.	16ee\JJ)	.
=184	=184	=184	=184	=184	=184
2GG/	2.r	2.r	2.r	8bb\L	.
.	.	.	.	(16aa\L	.
.	.	.	.	16gg\JJ)	.
.	.	.	.	8gg\L	.
.	.	.	.	(16ff#\L	.
.	.	.	.	16ee\JJ)	.
4GG#/	.	.	.	8bb\L	6 5
.	.	.	.	8dd\J	.
=185	=185	=185	=185	=185	=185
8AA/L	2.r	2.r	2.r	2ddT\	5 4
8AA/	.	.	.	.	.
8C#/	.	.	.	.	.
8E/	.	.	.	.	.
8C#/	.	.	.	4cc#\	5 3
8AA/J	.	.	.	.	.
=186	=186	=186	=186	=186	=186
2D\	2.r	2.r	2.r	4aa\	n
.	.	.	.	(8ggP/	.
.	.	.	.	8ffnp\)	.
.	.	.	.	(8eeP/	.
4Fn\	.	.	.	8ddp\)	.
=187	=187	=187	=187	=187	=187
2.G\	2.r	2.r	2.r	(8ccnP/	b
.	.	.	.	[8b-p\)	.
.	.	.	.	8b-\L]	.
.	.	.	.	16cc\L	.
.	.	.	.	16dd\JJ	.
.	.	.	.	16ee\LL	.
.	.	.	.	16ffn\	.
.	.	.	.	16gg\	.
.	.	.	.	16aa\JJ	.
=188	=188	=188	=188	=188	=188
2G\	2.r	2.r	2.r	4bb-\	.
.	.	.	.	(8aaP/	.
.	.	.	.	8ggp\)	.
.	.	.	.	(8ffnP/	.
4G#\	.	.	.	8eep\)	6 5
=189	=189	=189	=189	=189	=189
[4A\	2.r	2.r	2.r	(8ddP/	.
.	.	.	.	[8cc#p\)	.
8A\L]	.	.	.	12cc#\L]	.
8G\	.	.	.	12dd\	.
.	.	.	.	12ee\J	.
8Fn\	.	.	.	12ffn\L	6
8E\J	.	.	.	12gg\	.
.	.	.	.	12aa\J	.
=190	=190	=190	=190	=190	=190
4D\	2.r	2.r	2.r	12bb-\L	b6
.	.	.	.	12gg#\	.
.	.	.	.	12aa\J	.
4r	.	.	.	12bb-\L	.
.	.	.	.	12gg#\	.
.	.	.	.	12aa\J	.
4r	.	.	.	12bb-\L	.
.	.	.	.	12gg#\	.
.	.	.	.	12aa\J	.
=191	=191	=191	=191	=191	=191
4G\	2.r	2.r	2.r	12ee-\L	b6
.	.	.	.	12cc#\	.
.	.	.	.	12dd\J	.
4r	.	.	.	12ee-\L	.
.	.	.	.	12cc#\	.
.	.	.	.	12dd\J	.
4r	.	.	.	12ee-\L	.
.	.	.	.	12cc#\	.
.	.	.	.	12dd\J	.
=192	=192	=192	=192	=192	=192
4D\	2.r	2.r	2.r	12bb-\L	b6
.	.	.	.	12gg#\	.
.	.	.	.	12aa\J	.
4r	.	.	.	12bb-\L	.
.	.	.	.	12gg#\	.
.	.	.	.	12aa\J	.
4r	.	.	.	12bb-\L	.
.	.	.	.	12gg#\	.
.	.	.	.	12aa\J	.
=193	=193	=193	=193	=193	=193
4G\	2.r	2.r	2.r	12ee-\L	b6
.	.	.	.	12cc#\	.
.	.	.	.	12dd\J	.
4r	.	.	.	12ee-\L	.
.	.	.	.	12cc#\	.
.	.	.	.	12dd\J	.
4r	.	.	.	12ee-\L	.
.	.	.	.	12cc#\	.
.	.	.	.	12dd\J	.
=194	=194	=194	=194	=194	=194
8G\L	2.r	2.r	2.r	12bb-\L	b
8Fn\	.	.	.	12gg#\	.
.	.	.	.	12aa\J	.
8E\	.	.	.	12ggn\L	b5
8D\	.	.	.	12ee\	.
.	.	.	.	12ffn\J	.
8G\	.	.	.	12ee-\L	b6
8D\J	.	.	.	12cc#\	.
.	.	.	.	12dd\J	.
=195	=195	=195	=195	=195	=195
4C#/	2.r	2.r	2.r	[4a/	6
8AA\L	.	.	.	12a/L]	.
8A\	.	.	.	12b/	.
.	.	.	.	12cc#/J	.
8Fn\	.	.	.	12dd\L	6
8D\J	.	.	.	12ee\	.
.	.	.	.	12ffn\J	.
=196	=196	=196	=196	=196	=196
4AA/	2.r	2.r	2.r	[4gg\	7
4r	.	.	.	12gg\L]	.
.	.	.	.	12ffn\	.
.	.	.	.	12ee\J	.
4r	.	.	.	12bb-\L	.
.	.	.	.	12aa\	.
.	.	.	.	12gg\J	.
=197	=197	=197	=197	=197	=197
4AA/	2.r	2.r	2.r	[4ccc#\	.
4r	.	.	.	12ccc#\L]	.
.	.	.	.	12bb\	.
.	.	.	.	12aa\J	.
4r	.	.	.	12ddd\L	.
.	.	.	.	12cccn\	.
.	.	.	.	12bb-\J	.
=198	=198	=198	=198	=198	=198
4D\	2.r	2.r	2.r	8aa\L	.
.	.	.	.	8dd\J	.
4A\	.	.	.	(4ff#\	6 4
4AA/	.	.	.	8eeT\L)	5 3
.	.	.	.	8dd\J	.
=199	=199	=199	=199	=199	=199
4D\	4f#\	4r	4d/	4dd\	.
8A\L	8ccn\L	[2a/	[2ccn\	[2ccn\	n
8G\	8b\	.	.	.	.
8F#\	8a\	.	.	.	.
8E\J	8g\J	.	.	.	.
=200	=200	=200	=200	=200	=200
2.D\	2.f#\	8a/L]	8cc\L]	8cc\L]	n7
.	.	8ccn/	8ee\	8ee\	.
.	.	8b/	8dd\	8dd\	.
.	.	8a/	8ccn\	8ccn\	.
.	.	8g/	8b\	8b\	.
.	.	8f#/J	8a\J	8a\J	.
=201	=201	=201	=201	=201	=201
4G\	4g\	4dd\	4b\	4b\	.
8B\L	8dd\L	[2b\	[2dd\	[2dd\	.
8A\	8cc#\	.	.	.	.
8G#\	8b\	.	.	.	.
8F#\J	8a\J	.	.	.	.
=202	=202	=202	=202	=202	=202
2.E\	2.g#\	8b\L]	8dd\L]	8dd\L]	7 #
.	.	8dd\	8ff#\	8ff#\	.
.	.	8cc#\	8ee\	8ee\	.
.	.	8b\	8dd\	8dd\	.
.	.	8a\	8cc#\	8cc#\	.
.	.	8g#\J	8b\J	8b\J	.
=203	=203	=203	=203	=203	=203
4A\	4a\	4ee\	4cc#\	4cc#\	.
8c#\L	8ee\L	[2cc#\	[2ee\	[2ee\	.
8B\	8dd\	.	.	.	.
8A#\	8cc#\	.	.	.	.
8G#\J	8b\J	.	.	.	.
=204	=204	=204	=204	=204	=204
2.F#\	2.a#\	8cc#\L]	8ee\L]	8ee\L]	7 #
.	.	8ee\	8gg\	8gg\	.
.	.	8dd\	8ff#\	8ff#\	.
.	.	8cc#\	8ee\	8ee\	.
.	.	8b\	8dd\	8dd\	.
.	.	8a#\J	8cc#\J	8cc#\J	.
=205	=205	=205	=205	=205	=205
4B\	4b\	4ff#\	4dd\	4dd\	.
8B\L	8dd\L	2dd\	[2gg\	[2gg\	.
8A\	8cc#\	.	.	.	.
8G\	8b\	.	.	.	.
8F#\J	8a\J	.	.	.	.
=206	=206	=206	=206	=206	=206
4E\	2.g\	2.bb\	8gg\L]	8gg\L]	7
.	.	.	8aa\	8aa\	.
8E/L	.	.	8gg\	8gg\	.
8D/	.	.	8ff#\	8ff#\	.
8C#/	.	.	8ee\	8ee\	.
8BB/J	.	.	8dd\J	8dd\J	.
=207	=207	=207	=207	=207	=207
4AA/	4a\	4ee\	4cc#\	4cc#\	.
8r	8r	8r	8r	8r	.
16r	16r	16r	16r	16r	.
16AA/	16a\	16cc#\	16a/	16a/	.
4D\	4a\	4dd\	4ff#\	4ff#\	.
=208	=208	=208	=208	=208	=208
4AA/	4a\	4cc#\	4ee\	4ee\	.
8r	8r	8r	8r	8r	.
16r	16r	16r	16r	16r	.
16AA/	16a\	16cc#\	16a/	16a/	.
4D\	4a\	4dd\	4ff#\	4ff#\	.
=209	=209	=209	=209	=209	=209
4AA/	4a\	4cc#\	4ee\	4ee\	.
8r	8r	8r	8r	8r	.
16r	16r	16r	16r	16r	.
16AA/	16a\	16cc#\	16a/	16a/	.
4AA/	4cc#\	4ee\	4gg\	4gg\	7
=210	=210	=210	=210	=210	=210
4AA/	4cc#\	4ee\	4gg\	4gg\	7
8r	8r	8r	8r	8r	.
16r	16r	16r	16r	16r	.
16AA/	16cc#\	16cc#\	16ee\	16ee\	.
4D\	4a\	4dd\	4ff#\	4ff#\	.
=211	=211	=211	=211	=211	=211
8r	8r	8r	8r	8r	.
8B\L	8b\L	8b/L	8b/L	8b/L	.
8A\	8a\	8a/	8a/	8a/	.
8G\	8g\	8g/	8g/	8g/	.
8F#\	8f#\	8f#/	8f#/	8f#/	.
8E\J	8e\J	8e/J	8e/J	8e/J	.
=212	=212	=212	=212	=212	=212
8D\L	8d\L	8d/L	8d/L	8d/L	.
8B\	8b\	8b/	8b/	8b/	.
8A\	8a\	8a/	8a/	8a/	.
8G\	8g\	8g/	8g/	8g/	.
8F#\	8f#\	8f#/	8f#/	8f#/	.
8E\J	8e\J	8e/J	8e/J	8e/J	.
=213	=213	=213	=213	=213	=213
8D\L	8d\L	8d/L	8d/L	8d/L	.
8B\	8b\	8b/	8b/	8b/	.
8A\	8a\	8a/	8a/	8a/	.
8G\	8g\	8g/	8g/	8g/	.
8F#\	8f#\	8f#/	8f#/	8f#/	.
8E\J	8e\J	8e/J	8e/J	8e/J	.
=214	=214	=214	=214	=214	=214
4D\	4d\	4d/	4d/	4d/	.
4r	4r	4r	4r	4r	.
4r	4r	4r	4r	4r	.
==|!	==|!	==|!	==|!	==|!	==|!
*>6b	*>6b	*>6b	*>6b	*>6b	*>6b
!! RV 210 / Turin: MS Giord.29, Variant F
=171	=171	=171	=171	=171	=171
4D\	4f#\	2.r	2.r	8r	.
.	.	.	.	8ff#\L 8dd\	.
4r	4r	.	.	8ff#\ 8dd\	.
.	.	.	.	8dd\ 8a\	.
4r	4r	.	.	8dd\ 8a\	.
.	.	.	.	8ff#\J 8dd\	.
=172	=172	=172	=172	=172	=172
4AA/	4A/	2.r	2.r	8gg\L 8ee\	.
.	.	.	.	8ee\ 8cc#\	.
4r	4r	.	.	8ee\ 8cc#\	.
.	.	.	.	8cc#\ 8a\	.
4r	4r	.	.	8cc#\ 8a\	.
.	.	.	.	8aa\J 8cc#\	.
=173	=173	=173	=173	=173	=173
4D\	4d\	2.r	2.r	8ff#\L 8dd\	.
.	.	.	.	8dd\ 8a\	.
4r	4r	.	.	8dd\ 8a\	.
.	.	.	.	8dd\ 8d\	.
4r	4r	.	.	8dd\ 8d\	.
.	.	.	.	8ff#\J 8dd\	.
=174	=174	=174	=174	=174	=174
4AA/	4A/	8r	8r	4ee\ 4cc#\	.
.	.	8a\L	8cc#\L	.	.
4r	4r	8cc#\	8ee\	4ee\ 4cc#\ 4a\	.
.	.	8ee\	8aa\	.	.
4r	4r	8cc#\	8ee\	4r	.
.	.	8a\J	8cc#\J	.	.
=175	=175	=175	=175	=175	=175
4D\	4d\	4f#/	4dd\	8r	.
.	.	.	.	8ff#\L 8dd\	.
4r	4r	4r	4r	8ff#\ 8dd\	.
.	.	.	.	8dd\ 8a\	.
4r	4r	4r	4r	8dd\ 8a\	.
.	.	.	.	8ff#\J 8dd\	.
=176	=176	=176	=176	=176	=176
4AA/	4A/	2.r	2.r	8gg\L 8ee\	.
.	.	.	.	8ee\ 8cc#\	.
4r	4r	.	.	8ee\ 8cc#\	.
.	.	.	.	8cc#\ 8a\	.
4r	4r	.	.	8cc#\ 8a\	.
.	.	.	.	8aa\J 8cc#\	.
=177	=177	=177	=177	=177	=177
4D\	4d\	2.r	2.r	8ff#\L 8dd\	.
.	.	.	.	8dd\ 8a\	.
4r	4r	.	.	8dd\ 8a\	.
.	.	.	.	8dd\ 8d\	.
4r	4r	.	.	8dd\ 8d\	.
.	.	.	.	8ff#\J 8dd\	.
=178	=178	=178	=178	=178	=178
4AA/	4A/	8r	8r	4ee\ 4cc#\	.
.	.	8a\L	8cc#\L	.	.
4r	4r	8cc#\	8ee\	4ee\ 4cc#\ 4a\	.
.	.	8ee\	8aa\	.	.
4r	4r	8cc#\	8ee\	4r	.
.	.	8a\J	8cc#\J	.	.
=179	=179	=179	=179	=179	=179
2.r	2.r	4f#/	4dd\	8r	.
*	*	*	*	*^	*
.	.	.	.	8ff#\L	8aa/L	.
.	.	4r	4r	8ff#\	8aa/	.
.	.	.	.	8ff#\J	8aa/	.
.	.	4r	4r	4ff#\	8ddd/	.
.	.	.	.	.	8cccn/J	.
*	*	*	*	*v	*v	*
=180	=180	=180	=180	=180	=180
2.r	2.r	8r	8r	4cccnT\	.
.	.	8G/L	8G/L	.	.
.	.	8B/	8B/	2bb\	.
.	.	8d/	8d/	.	.
.	.	8B/	8B/	.	.
.	.	8G/J	8G/J	.	.
=181	=181	=181	=181	=181	=181
2.r	2.r	4e/	4e/	8r	.
*	*	*	*	*^	*
.	.	.	.	8gg\L	8bb/L	.
.	.	4r	4r	8gg\	8bb/	.
.	.	.	.	8gg\J	8bb/	.
.	.	4r	4r	4gg\	8eee/	.
.	.	.	.	.	8ddd/J	.
*	*	*	*	*v	*v	*
=182	=182	=182	=182	=182	=182
2.r	2.r	8r	8r	4dddT\	.
.	.	8A/L	8A/L	.	.
.	.	8c#/	8c#/	2ccc#\	.
.	.	8e/	8e/	.	.
.	.	8c#/	8c#/	.	.
.	.	8A/J	8A/J	.	.
=183	=183	=183	=183	=183	=183
2.r	2.r	4f#/	4f#/	8r	.
*	*	*	*	*^	*
.	.	.	.	8aa\L	8ccc#/L	.
.	.	4r	4r	8aa\	8ccc#/	.
.	.	.	.	8aa\J	8ccc#/	.
.	.	4r	4r	4aa\	8fff#/	.
.	.	.	.	.	8eee/J	.
*	*	*	*	*v	*v	*
=184	=184	=184	=184	=184	=184
2.r	2.r	8r	8r	4eeeT\	.
.	.	8B/L	8B/L	.	.
.	.	8d/	8d/	2ddd\	.
.	.	8f#/	8f#/	.	.
.	.	8d/	8d/	.	.
.	.	8B/J	8B/J	.	.
=185	=185	=185	=185	=185	=185
*	*	*	*	*^	*
2.r	2.r	4g/	4g/	8r	8r	.
.	.	.	.	8bb\L	8ddd/L	.
.	.	4r	4r	8bb\	8ddd/	.
.	.	.	.	8bb\J	8ddd/	.
.	.	4r	4r	4bb\	8ggg/	.
.	.	.	.	.	8fff#/J	.
*	*	*	*	*v	*v	*
=186	=186	=186	=186	=186	=186
2.r	2.r	8r	8r	4fff#t\	.
.	.	8c#/L	8c#/L	.	.
.	.	8e/	8e/	2eee\	.
.	.	8g/	8g/	.	.
.	.	8e/	8e/	.	.
.	.	8c#/J	8c#/J	.	.
=187	=187	=187	=187	=187	=187
2.r	2.r	4a/	4a/	8r	.
.	.	.	.	8eee\L 8ccc#\	.
.	.	4c#/	4c#/	8eee\ 8ccc#\	.
.	.	.	.	8eee\ 8ccc#\	.
.	.	4A/	4A/	8aaa\ 8ccc#\	.
.	.	.	.	8eee\J 8ccc#\	.
=188	=188	=188	=188	=188	=188
2.r	2.r	4d/	4d/	8fff#\L 8ddd\	.
.	.	.	.	8fff#\ 8ddd\	.
.	.	4f#/	4f#/	8fff#\ 8ddd\	.
.	.	.	.	8fff#\ 8ddd\	.
.	.	4d/	4d/	8fff#\	.
.	.	.	.	8aaa\J	.
=189	=189	=189	=189	=189	=189
2.r	2.r	4a/	4a/	8eee\L 8ccc#\	.
.	.	.	.	8eee\ 8ccc#\	.
.	.	4c#/	4c#/	8eee\ 8ccc#\	.
.	.	.	.	8eee\ 8ccc#\	.
.	.	4A/	4A/	8aaa\ 8ccc#\	.
.	.	.	.	8eee\J 8ccc#\	.
=190	=190	=190	=190	=190	=190
2.r	2.r	4d/	4d/	8fff#\L 8ddd\	.
.	.	.	.	8fff#\ 8ddd\	.
.	.	4f#/	4f#/	8fff#\ 8ddd\	.
.	.	.	.	8fff#\ 8ddd\	.
.	.	4d/	4d/	8fff#\	.
.	.	.	.	8aaa\J	.
=191	=191	=191	=191	=191	=191
2.r	2.r	4a/	4a/	8eee\L 8ccc#\	.
.	.	.	.	8eee\ 8ccc#\	.
.	.	4r	4r	8eee\ 8ccc#\	.
.	.	.	.	8eee\ 8ccc#\	.
.	.	4a/	4a/	8aaa\ 8ccc#\	.
.	.	.	.	8eee\J 8ccc#\	.
=192	=192	=192	=192	=192	=192
2.r	2.r	4b\	4b\	8ddd\L 8bb\	.
.	.	.	.	8ddd\ 8bb\	.
.	.	2g/	2g/	8ddd\ 8bb\	.
.	.	.	.	8ddd\ 8bb\	.
.	.	.	.	8ggg\ 8bb\	.
.	.	.	.	8ddd\J 8bb\	.
=193	=193	=193	=193	=193	=193
2.r	2.r	4a/	4a/	8ccc#\L 8aa\	.
.	.	.	.	8ccc#\ 8aa\	.
.	.	2f#/	2f#/	8ccc#\ 8aa\	.
.	.	.	.	8ccc#\ 8aa\	.
.	.	.	.	8fff#\ 8aa\	.
.	.	.	.	8ccc#\J 8aa\	.
=194	=194	=194	=194	=194	=194
2.r	2.r	4g/	4g/	8bb\L 8gg\	.
.	.	.	.	8bb\ 8gg\	.
.	.	2e/	2e/	8bb\ 8gg\	.
.	.	.	.	8bb\ 8gg\	.
.	.	.	.	8eee\ 8gg\	.
.	.	.	.	8bb\J 8gg\	.
=195	=195	=195	=195	=195	=195
2.r	2.r	4f#/	4f#/	8aa\L 8ff#\	.
.	.	.	.	8aa\ 8ff#\	.
.	.	2d/	2d/	8aa\ 8ff#\	.
.	.	.	.	8aa\ 8ff#\	.
.	.	.	.	8ddd\ 8ff#\	.
.	.	.	.	8aa\J 8ff#\	.
=196	=196	=196	=196	=196	=196
2.r	2.r	4g/	4g/	8bb\ 8gg\	.
.	.	.	.	4aa\ 4ff#\	.
.	.	8d/L	8d/L	.	.
.	.	8e/	8e/	8aa\L 8ff#\	.
.	.	8f#/	8f#/	8ddd\ 8ff#\	.
.	.	8d/J	8d/J	8aa\J 8ff#\	.
=197	=197	=197	=197	=197	=197
2.r	2.r	4g/	4g/	8bb\ 8gg\	.
.	.	.	.	4aa\ 4ff#\	.
.	.	8d/L	8d/L	.	.
.	.	8e/	8e/	8aa\L 8ff#\	.
.	.	8f#/	8f#/	8ddd\ 8ff#\	.
.	.	8d/J	8d/J	8aa\J 8ff#\	.
=198	=198	=198	=198	=198	=198
2.r	2.r	4g/	4g/	(8bb\L	.
.	.	.	.	8aa\	.
.	.	2G/	2G/	8gg\	.
.	.	.	.	8ff#\	.
.	.	.	.	8ee\	.
.	.	.	.	8dd\J)	.
=199	=199	=199	=199	=199	=199
2.r	2.r	[2.A/	[2.A/	(8a\L	.
.	.	.	.	8bb-\J	.
.	.	.	.	4aa\	.
.	.	.	.	4gg#\)	.
=200	=200	=200	=200	=200	=200
2.r	2.r	2.A_/	2.A_/	(8aa\L	.
.	.	.	.	8dd\J	.
.	.	.	.	4cc#\	.
.	.	.	.	4b\)	.
=201	=201	=201	=201	=201	=201
2.r	2.r	2.A_/	2.A_/	(8a\L	.
.	.	.	.	8bb-\J	.
.	.	.	.	4aa\	.
.	.	.	.	4gg#\)	.
=202	=202	=202	=202	=202	=202
2.r	2.r	2.A_/	2.A_/	(8aa\L	.
.	.	.	.	8dd\J	.
.	.	.	.	4cc#\	.
.	.	.	.	4b\)	.
=203	=203	=203	=203	=203	=203
2.r	2.r	2.A_/	2.A_/	8a\L	.
.	.	.	.	16b\L	.
.	.	.	.	16cc#\	.
.	.	.	.	16dd\	.
.	.	.	.	16ee\	.
.	.	.	.	16ff#\	.
.	.	.	.	16gg\JJ	.
.	.	.	.	8aa\L	.
.	.	.	.	8dd\J	.
=204	=204	=204	=204	=204	=204
2.r	2.r	2.A_/	2.A_/	(4cc#t\	.
.	.	.	.	4ddT\	.
.	.	.	.	4eeT\	.
=205	=205	=205	=205	=205	=205
2.r	2.r	2.A_/	2.A_/	4ff#t\	.
.	.	.	.	4ggT\	.
.	.	.	.	4aaT\	.
=206	=206	=206	=206	=206	=206
2.r	2.r	2.A_/	2.A_/	4bbT\	.
.	.	.	.	4ccc#t\	.
.	.	.	.	4ddd\)	.
=207	=207	=207	=207	=207	=207
2.r	2.r	2A/]	2A/]	8ddd\L	.
.	.	.	.	16ccc#\L	.
.	.	.	.	16bb\JJ	.
.	.	.	.	8aa\L	.
.	.	.	.	8gg#\J	.
.	.	4d/	4d/	8aa\L	.
.	.	.	.	16ggn\L	.
.	.	.	.	16ff#\JJ	.
=208	=208	=208	=208	=208	=208
2.r	2.r	8a/L	8a/L	8eeT\L	.
.	.	8d/J	8d/J	8dd\J	.
.	.	4a/	4a/	2eeT\	.
.	.	4A/	4A/	.	.
*>6c	*>6c	*>6c	*>6c	*>6c	*>6c
!! RV 210 / Turin: MS Giord.30, Variant E
=171	=171	=171	=171	=171	=171
2.d\	2.d\	2.dd\	2.dd\	2.dd\	.
=172	=172	=172	=172	=172	=172
2.F#\	2.F#/	2.f#/	2.f#/	2.f#/	.
=173	=173	=173	=173	=173	=173
8G\L	8G/L	8g/L	8g/L	8g/L	.
8B\	8B/	8b/	8b/	8b/	.
8A\	8A/	8a/	8a/	8a/	.
8G\	8G/	8g/	8g/	8g/	.
8F#\	8F#/	8f#/	8f#/	8f#/	.
8E\J	8E/J	8e/J	8e/J	8e/J	.
=174	=174	=174	=174	=174	=174
8D\L	8D/L	8d/L	8d/L	8d/L	.
8D\J	8a/J	8ff#/J	8ff#/J	8ff#/J	.
4GG/	4b\	4gg\	4gg\	4gg\	.
4AA/	4a\	4ee\	4ee\	4ee\	.
=175	=175	=175	=175	=175	=175
8D\L	8f#/L	8dd/L	8dd/L	8dd/L	.
8B\	8B/	8b/	8b/	8b/	.
8A\	8A/	8a/	8a/	8a/	.
8G\	8G/	8g/	8g/	8g/	.
8F#\	8F#/	8f#/	8f#/	8f#/	.
8E\J	8E/J	8e/J	8e/J	8e/J	.
=176	=176	=176	=176	=176	=176
8D\L	8D/L	8d/L	8d/L	8d/L	.
8B\	8B/	8b/	8b/	8b/	.
8A\	8A/	8a/	8a/	8a/	.
8G\	8G/	8g/	8g/	8g/	.
8F#\	8F#/	8f#/	8f#/	8f#/	.
8E\J	8E/J	8e/J	8e/J	8e/J	.
=177	=177	=177	=177	=177	=177
8D\L	8D/L	8d/L	8d/L	8d/L	.
8E\J	8a/J	8dd/J	8ff#/J	8ff#/J	.
4GG/	4b\	4ee\	4gg\	4gg\	.
4AA/	4a\	4cc#\	4ee\	4ee\	.
=178	=178	=178	=178	=178	=178
2.DD;/	2.f#;\	2.dd;\	2.dd;\	2.dd;\	.
==|!	==|!	==|!	==|!	==|!	==|!
*-	*-	*-	*-	*-	*-
!!!CDT: 1678/3/4/-1741/7/28
!!!OCY: Italia
!!!ODE: Count Wenzeslaus von Morzin of Bohemia; Count Wenceslas of Morzin
!!!ODT: 1725///
!!!OPC: Venezia; Venice
!!!AGN: concerto
!!!AST: baroque
!!!AMT: simple triple
!!!PPR: Michel-Charles Le Ce`ne
!!!PC#: Le Cene No. 521
!!!PDT: 1725///
!!!PPP: Amsterdam
!!!SCT: RV 210
!!!SMA1: The cooperation of the following libraries is gratefully acknowledged:
!!!SMA2: Saechsische Landesbibliothek, Dresden; Biblioteca Nazionale
!!!SMA3: Universitaria, Turin; Henry Watson Music Library, Manchester.
!!!YOR: New York: Dover Publications, Inc. 1995
!!!AIN: cello cemba viola violn
!!!EEV: 1.0
!!!RDT: 1994/5/12/
!!!YER: 1996/10/31/
!!!YEP: Center for Computer Assisted Research in the Humanities
!!!YEN: United States of America
!!!EFL: 3/3
!!!ENC: Edmund Correia, Jr.
!!!EED: Eleanor Selfridge-Field
